;1001
;Printer name: Anycubic Mega Pro
;TIME:2275
;Print time: 37m:55s
;Extruder 1 material used: 1927.211mm
;Extruder 1 material name: 
;Extruder 1 filament diameter: 1.75mm
;Extruder 1 nozzle diameter: 0.4mm
;Extruder 1 offset x: 0mm
;Extruder 1 offset y: 0mm
;Extruder 1 offset z: 0mm
;Extruder 1 max temp: 250
;Bed temp: 75
;Layer count: 66
;Width: 210mm
;Depth: 210mm
;Height: 205mm
;Center x: 105mm
;Center y: 105mm
;Center z: 0mm
;Count of bodies: 1
;Fusion version: 2604.0.316
G21
G28 X0 Y0
G28 Z0
;--------------------------------
;Selected Profile: ABS Direct Drive
;--------------------------------
;Selected Printer: Anycubic, Mega Pro
;--------------------------------
T0
M140 S75
M104 S250 T0
M105
M190 S75
M105
M109 S250 T0
G90
M83
G92 E0
G1 F9000
G0 Z10
G0 X10 Y10
G0 X10 Y10 Z10 F7200
G92 E0
;--------------------------------
;Part 1
;LAYER_COUNT:66
;LAYER:1
M107
M104 S260 T0
M105
M109 S260 T0
;rapid-leaky
G0 X20 Y20.5 Z0.2 F7200
;bead-prime
G1 X120 F720 E8.315
G1 F2100 E-0.5
;rapid-dry
G0 X112.474 Y78.426 F7200
G1 F2100 E0.5
;bead-skirt/brim
G1 X113.713 Y78.811 F960 E0.043
G1 X114.573 Y79.107 E0.03
G1 X120.34 Y82.046 E0.216
G1 X121.372 Y82.78 E0.042
G1 X122.108 Y83.334 E0.03
G1 X126.683 Y87.91 E0.216
G1 X127.448 Y88.94 E0.042
G1 X127.967 Y89.685 E0.031
G1 X130.903 Y95.448 E0.215
G1 X131.301 Y96.633 E0.041
G1 X131.575 Y97.53 E0.031
G1 X132.582 Y103.893 E0.215
G1 X132.6 Y104.769 E0.029
G1 X132.587 Y106.08 E0.043
G1 X131.574 Y112.474 E0.216
G1 X131.187 Y113.717 E0.043
G1 X130.893 Y114.573 E0.03
G1 X127.966 Y120.317 E0.215
G1 X127.479 Y121.015 E0.028
G1 X126.668 Y122.106 E0.045
G1 X122.09 Y126.683 E0.215
G1 X121.061 Y127.447 E0.043
G1 X120.315 Y127.967 E0.03
G1 X114.55 Y130.904 E0.216
G1 X113.291 Y131.326 E0.044
G1 X112.47 Y131.575 E0.028
G1 X106.107 Y132.582 E0.214
G1 X105.231 Y132.6 E0.03
G1 X103.92 Y132.587 E0.043
G1 X97.526 Y131.574 E0.216
G1 X96.294 Y131.191 E0.042
G1 X95.427 Y130.893 E0.031
G1 X89.686 Y127.967 E0.214
G1 X88.968 Y127.468 E0.029
G1 X87.911 Y126.685 E0.044
G1 X83.317 Y122.09 E0.216
G1 X82.553 Y121.061 E0.043
G1 X82.033 Y120.315 E0.03
G1 X79.097 Y114.552 E0.215
G1 X78.699 Y113.367 E0.042
G1 X78.425 Y112.47 E0.031
G1 X77.418 Y106.107 E0.214
G1 X77.4 Y105.231 E0.029
G1 X77.413 Y103.92 E0.044
G1 X78.426 Y97.526 E0.215
G1 X78.814 Y96.279 E0.044
G1 X79.107 Y95.427 E0.03
G1 X82.033 Y89.686 E0.214
G1 X82.532 Y88.968 E0.029
G1 X83.315 Y87.911 E0.044
G1 X87.91 Y83.317 E0.216
G1 X88.94 Y82.552 E0.043
G1 X89.685 Y82.033 E0.03
G1 X95.448 Y79.097 E0.215
G1 X96.632 Y78.699 E0.042
G1 X97.53 Y78.425 E0.031
G1 X103.893 Y77.418 E0.214
G1 X104.769 Y77.4 E0.029
G1 X106.08 Y77.413 E0.044
G1 X112.474 Y78.426 E0.215
;rapid-leaky
G0 X112.383 Y78.816 F7200
;bead-skirt/brim
G1 X113.588 Y79.191 F960 E0.042
G1 X114.416 Y79.476 E0.029
G1 X120.132 Y82.389 E0.214
G1 X121.136 Y83.103 E0.041
G1 X121.845 Y83.637 E0.029
G1 X126.38 Y88.172 E0.213
G1 X127.123 Y89.174 E0.042
G1 X127.623 Y89.891 E0.029
G1 X130.534 Y95.603 E0.213
G1 X130.92 Y96.755 E0.041
G1 X131.184 Y97.62 E0.03
G1 X132.183 Y103.928 E0.212
G1 X132.2 Y104.771 E0.028
G1 X132.187 Y106.047 E0.043
G1 X131.184 Y112.383 E0.213
G1 X130.807 Y113.592 E0.042
G1 X130.524 Y114.416 E0.029
G1 X127.622 Y120.111 E0.213
G1 X127.155 Y120.782 E0.027
G1 X126.365 Y121.843 E0.044
G1 X121.828 Y126.38 E0.213
G1 X120.828 Y127.122 E0.042
G1 X120.109 Y127.623 E0.029
G1 X114.395 Y130.535 E0.213
G1 X113.169 Y130.945 E0.043
G1 X112.38 Y131.184 E0.027
G1 X106.072 Y132.183 E0.213
G1 X105.229 Y132.2 E0.028
G1 X103.953 Y132.187 E0.042
G1 X97.617 Y131.184 E0.214
G1 X96.418 Y130.811 E0.041
G1 X95.584 Y130.524 E0.03
G1 X89.892 Y127.623 E0.212
G1 X89.201 Y127.143 E0.028
G1 X88.173 Y126.381 E0.043
G1 X83.62 Y121.828 E0.214
G1 X82.878 Y120.828 E0.041
G1 X82.377 Y120.109 E0.03
G1 X79.466 Y114.397 E0.213
G1 X79.08 Y113.245 E0.04
G1 X78.816 Y112.38 E0.03
G1 X77.817 Y106.072 E0.213
G1 X77.801 Y105.229 E0.028
G1 X77.813 Y103.954 E0.042
G1 X78.816 Y97.617 E0.214
G1 X79.194 Y96.403 E0.042
G1 X79.476 Y95.584 E0.029
G1 X82.377 Y89.892 E0.212
G1 X82.857 Y89.201 E0.028
G1 X83.619 Y88.173 E0.043
G1 X88.172 Y83.62 E0.214
G1 X89.173 Y82.877 E0.041
G1 X89.892 Y82.377 E0.029
G1 X95.603 Y79.466 E0.214
G1 X96.755 Y79.08 E0.04
G1 X97.62 Y78.816 E0.03
G1 X103.928 Y77.817 E0.213
G1 X104.771 Y77.801 E0.028
G1 X106.047 Y77.813 E0.042
G1 X112.383 Y78.816 E0.213
G1 F2100 E-0.5
;rapid-dry
G0 X111.266 Y84.121 F7200
G1 F2100 E0.5
;bead-perimeter_outer
G1 X112.203 Y84.426 F720 E0.033
G1 X112.326 Y85.191 E0.026
G1 X112.367 Y85.61 E0.014
G1 X112.388 Y86.05 E0.015
G1 X112.385 Y86.47 E0.014
G1 X112.356 Y86.885 E0.013
G1 X112.254 Y87.472 E0.02
G1 X112.197 Y87.648 E0.006
G1 X111.868 Y88.447 E0.029
G1 X111.851 Y88.573 E0.004
G1 X111.854 Y88.684 E0.004
G1 X111.877 Y88.801 E0.004
G1 X111.921 Y88.913 E0.004
G1 X111.982 Y89.016 E0.004
G1 X112.06 Y89.106 E0.004
G1 X112.157 Y89.187 E0.004
G1 X113.086 Y89.65 E0.035
G1 X113.496 Y89.874 E0.015
G1 X113.708 Y89.946 E0.008
G1 X113.827 Y89.957 E0.004
G1 X113.948 Y89.945 E0.004
G1 X114.072 Y89.911 E0.004
G1 X114.27 Y89.797 E0.008
G1 X114.42 Y89.624 E0.007
G1 X114.807 Y88.978 E0.025
G1 X114.919 Y88.827 E0.006
G1 X115.186 Y88.538 E0.014
G1 X115.64 Y88.142 E0.02
G1 X115.988 Y87.884 E0.014
G1 X116.346 Y87.65 E0.014
G1 X116.72 Y87.429 E0.015
G1 X117.411 Y87.08 E0.025
G1 X118.209 Y87.657 E0.033
G1 X118.09 Y88.424 E0.026
G1 X117.996 Y88.848 E0.014
G1 X117.883 Y89.261 E0.015
G1 X117.749 Y89.66 E0.014
G1 X117.512 Y90.22 E0.02
G1 X117.316 Y90.569 E0.013
G1 X117.211 Y90.717 E0.006
G1 X116.648 Y91.378 E0.029
G1 X116.594 Y91.485 E0.004
G1 X116.546 Y91.72 E0.008
G1 X116.58 Y91.955 E0.008
G1 X116.626 Y92.066 E0.004
G1 X116.694 Y92.172 E0.004
G1 X117.434 Y92.901 E0.035
G1 X117.754 Y93.238 E0.015
G1 X117.935 Y93.374 E0.008
G1 X118.161 Y93.447 E0.008
G1 X118.28 Y93.454 E0.004
G1 X118.4 Y93.44 E0.004
G1 X118.524 Y93.402 E0.004
G1 X118.71 Y93.288 E0.007
G1 X119.278 Y92.793 E0.025
G1 X119.431 Y92.684 E0.006
G1 X119.774 Y92.491 E0.014
G1 X119.956 Y92.406 E0.006
G1 X120.34 Y92.251 E0.014
G1 X120.739 Y92.117 E0.014
G1 X121.152 Y92.004 E0.014
G1 X121.576 Y91.91 E0.015
G1 X122.341 Y91.792 E0.025
G1 X122.921 Y92.588 E0.033
G1 X122.571 Y93.28 E0.026
G1 X122.357 Y93.643 E0.014
G1 X122.116 Y94.012 E0.015
G1 X121.874 Y94.34 E0.013
G1 X121.601 Y94.666 E0.014
G1 X121.173 Y95.081 E0.02
G1 X121.022 Y95.193 E0.006
G1 X120.287 Y95.644 E0.029
G1 X120.203 Y95.73 E0.004
G1 X120.085 Y95.938 E0.008
G1 X120.043 Y96.173 E0.008
G1 X120.083 Y96.406 E0.008
G1 X120.813 Y97.843 E0.053
G1 X120.894 Y97.94 E0.005
G1 X120.985 Y98.018 E0.004
G1 X121.095 Y98.083 E0.004
G1 X121.317 Y98.147 E0.008
G1 X121.437 Y98.149 E0.004
G1 X121.658 Y98.099 E0.007
G1 X122.352 Y97.803 E0.025
G1 X122.528 Y97.746 E0.006
G1 X123.116 Y97.644 E0.02
G1 X123.53 Y97.615 E0.014
G1 X123.95 Y97.612 E0.014
G1 X124.377 Y97.632 E0.014
G1 X124.809 Y97.674 E0.015
G1 X125.574 Y97.797 E0.025
G1 X125.879 Y98.734 E0.033
G1 X125.342 Y99.274 E0.026
G1 X125.007 Y99.572 E0.014
G1 X124.673 Y99.839 E0.015
G1 X124.342 Y100.077 E0.013
G1 X123.98 Y100.302 E0.014
G1 X123.45 Y100.564 E0.02
G1 X123.268 Y100.624 E0.006
G1 X122.43 Y100.826 E0.029
G1 X122.324 Y100.882 E0.004
G1 X122.228 Y100.955 E0.004
G1 X122.143 Y101.049 E0.004
G1 X122.036 Y101.253 E0.008
G1 X122.007 Y101.37 E0.004
G1 X122 Y101.496 E0.004
G1 X122.171 Y102.52 E0.035
G1 X122.231 Y102.978 E0.015
G1 X122.297 Y103.195 E0.008
G1 X122.359 Y103.3 E0.004
G1 X122.532 Y103.465 E0.008
G1 X122.645 Y103.528 E0.004
G1 X122.749 Y103.563 E0.004
G1 X122.868 Y103.584 E0.004
G1 X122.979 Y103.583 E0.003
G1 X123.726 Y103.517 E0.025
G1 X123.912 Y103.518 E0.006
G1 X124.502 Y103.602 E0.02
G1 X124.905 Y103.703 E0.014
G1 X125.306 Y103.829 E0.014
G1 X125.694 Y103.975 E0.014
G1 X126.104 Y104.154 E0.015
G1 X126.793 Y104.508 E0.025
G1 X126.792 Y105.493 E0.033
G1 X126.104 Y105.846 E0.026
G1 X125.706 Y106.02 E0.014
G1 X125.305 Y106.171 E0.015
G1 X124.905 Y106.297 E0.014
G1 X124.502 Y106.398 E0.013
G1 X123.912 Y106.482 E0.02
G1 X123.726 Y106.483 E0.006
G1 X122.868 Y106.416 E0.029
G1 X122.636 Y106.476 E0.008
G1 X122.531 Y106.535 E0.004
G1 X122.358 Y106.701 E0.008
G1 X122.254 Y106.914 E0.008
G1 X122 Y108.504 E0.053
G1 X122.007 Y108.63 E0.005
G1 X122.036 Y108.747 E0.004
G1 X122.083 Y108.857 E0.004
G1 X122.147 Y108.958 E0.004
G1 X122.324 Y109.118 E0.008
G1 X122.43 Y109.174 E0.004
G1 X122.536 Y109.208 E0.003
G1 X123.257 Y109.373 E0.025
G1 X123.445 Y109.434 E0.006
G1 X123.8 Y109.599 E0.013
G1 X124.332 Y109.916 E0.021
G1 X124.673 Y110.161 E0.014
G1 X125.007 Y110.428 E0.014
G1 X125.332 Y110.717 E0.015
G1 X125.879 Y111.266 E0.025
G1 X125.794 Y111.543 E0.01
G1 X125.574 Y112.203 E0.023
G1 X124.809 Y112.326 E0.026
G1 X124.39 Y112.367 E0.014
G1 X123.95 Y112.388 E0.015
G1 X123.53 Y112.385 E0.014
G1 X122.925 Y112.332 E0.02
G1 X122.528 Y112.254 E0.013
G1 X122.352 Y112.197 E0.006
G1 X121.658 Y111.901 E0.026
G1 X121.427 Y111.851 E0.007
G1 X121.316 Y111.854 E0.004
G1 X121.199 Y111.877 E0.004
G1 X121.087 Y111.921 E0.004
G1 X120.984 Y111.982 E0.004
G1 X120.894 Y112.06 E0.004
G1 X120.813 Y112.157 E0.004
G1 X120.083 Y113.594 E0.054
G1 X120.043 Y113.827 E0.008
G1 X120.055 Y113.948 E0.004
G1 X120.089 Y114.072 E0.004
G1 X120.136 Y114.171 E0.004
G1 X120.203 Y114.27 E0.004
G1 X120.287 Y114.356 E0.004
G1 X121.022 Y114.807 E0.028
G1 X121.173 Y114.919 E0.007
G1 X121.595 Y115.328 E0.019
G1 X121.866 Y115.65 E0.014
G1 X122.116 Y115.988 E0.014
G1 X122.571 Y116.72 E0.029
G1 X122.777 Y117.109 E0.014
G1 X122.918 Y117.415 E0.012
G1 X122.343 Y118.209 E0.032
G1 X121.576 Y118.09 E0.026
G1 X121.152 Y117.996 E0.014
G1 X120.739 Y117.883 E0.015
G1 X120.34 Y117.749 E0.014
G1 X119.968 Y117.598 E0.013
G1 X119.774 Y117.509 E0.007
G1 X119.431 Y117.316 E0.013
G1 X119.278 Y117.207 E0.006
G1 X118.622 Y116.648 E0.029
G1 X118.515 Y116.594 E0.004
G1 X118.28 Y116.546 E0.008
G1 X118.045 Y116.58 E0.008
G1 X117.934 Y116.626 E0.004
G1 X117.833 Y116.69 E0.004
G1 X116.693 Y117.829 E0.054
G1 X116.623 Y117.942 E0.004
G1 X116.553 Y118.161 E0.008
G1 X116.546 Y118.28 E0.004
G1 X116.594 Y118.515 E0.008
G1 X116.712 Y118.71 E0.007
G1 X117.207 Y119.278 E0.025
G1 X117.316 Y119.431 E0.006
G1 X117.509 Y119.774 E0.014
G1 X117.749 Y120.34 E0.02
G1 X117.883 Y120.739 E0.014
G1 X117.996 Y121.152 E0.014
G1 X118.09 Y121.576 E0.015
G1 X118.208 Y122.341 E0.025
G1 X117.649 Y122.756 E0.024
G1 X117.412 Y122.921 E0.009
G1 X116.72 Y122.571 E0.026
G1 X116.357 Y122.357 E0.014
G1 X115.988 Y122.116 E0.015
G1 X115.65 Y121.866 E0.014
G1 X115.333 Y121.599 E0.013
G1 X115.047 Y121.319 E0.014
G1 X114.807 Y121.022 E0.012
G1 X114.42 Y120.376 E0.025
G1 X114.27 Y120.203 E0.008
G1 X114.064 Y120.085 E0.008
G1 X113.947 Y120.054 E0.004
G1 X113.827 Y120.043 E0.004
G1 X113.594 Y120.083 E0.008
G1 X112.157 Y120.813 E0.053
G1 X112.06 Y120.894 E0.005
G1 X111.982 Y120.984 E0.004
G1 X111.92 Y121.087 E0.004
G1 X111.875 Y121.207 E0.004
G1 X111.851 Y121.437 E0.008
G1 X111.869 Y121.555 E0.004
G1 X112.199 Y122.358 E0.028
G1 X112.254 Y122.528 E0.006
G1 X112.356 Y123.115 E0.02
G1 X112.385 Y123.53 E0.014
G1 X112.388 Y123.95 E0.014
G1 X112.369 Y124.364 E0.014
G1 X112.326 Y124.809 E0.015
G1 X112.203 Y125.574 E0.025
G1 X111.266 Y125.879 E0.033
G1 X110.726 Y125.342 E0.026
G1 X110.428 Y125.007 E0.014
G1 X110.161 Y124.673 E0.015
G1 X109.916 Y124.332 E0.014
G1 X109.698 Y123.98 E0.013
G1 X109.437 Y123.452 E0.02
G1 X109.376 Y123.268 E0.006
G1 X109.174 Y122.431 E0.029
G1 X109.118 Y122.324 E0.004
G1 X108.958 Y122.147 E0.008
G1 X108.747 Y122.036 E0.008
G1 X108.63 Y122.007 E0.004
G1 X108.504 Y122 E0.004
G1 X107.494 Y122.169 E0.034
G1 X107.022 Y122.231 E0.016
G1 X106.804 Y122.297 E0.008
G1 X106.693 Y122.365 E0.004
G1 X106.535 Y122.532 E0.008
G1 X106.472 Y122.645 E0.004
G1 X106.437 Y122.749 E0.004
G1 X106.416 Y122.868 E0.004
G1 X106.417 Y122.979 E0.003
G1 X106.483 Y123.726 E0.025
G1 X106.482 Y123.912 E0.006
G1 X106.398 Y124.502 E0.02
G1 X106.297 Y124.905 E0.014
G1 X106.171 Y125.305 E0.014
G1 X106.02 Y125.706 E0.014
G1 X105.846 Y126.104 E0.015
G1 X105.492 Y126.793 E0.025
G1 X104.507 Y126.792 E0.033
G1 X104.154 Y126.104 E0.026
G1 X103.98 Y125.706 E0.014
G1 X103.829 Y125.305 E0.015
G1 X103.703 Y124.905 E0.014
G1 X103.602 Y124.502 E0.013
G1 X103.518 Y123.912 E0.02
G1 X103.517 Y123.726 E0.006
G1 X103.583 Y122.979 E0.025
G1 X103.584 Y122.868 E0.004
G1 X103.563 Y122.748 E0.004
G1 X103.524 Y122.636 E0.004
G1 X103.465 Y122.531 E0.004
G1 X103.39 Y122.439 E0.004
G1 X103.299 Y122.358 E0.004
G1 X103.086 Y122.254 E0.008
G1 X101.496 Y122 E0.053
G1 X101.37 Y122.007 E0.005
G1 X101.253 Y122.036 E0.004
G1 X101.042 Y122.147 E0.008
G1 X100.882 Y122.324 E0.008
G1 X100.826 Y122.43 E0.004
G1 X100.627 Y123.257 E0.028
G1 X100.566 Y123.445 E0.006
G1 X100.302 Y123.98 E0.02
G1 X100.084 Y124.332 E0.014
G1 X99.839 Y124.673 E0.014
G1 X99.572 Y125.007 E0.014
G1 X99.283 Y125.332 E0.015
G1 X98.734 Y125.879 E0.025
G1 X97.797 Y125.574 E0.033
G1 X97.674 Y124.809 E0.026
G1 X97.633 Y124.39 E0.014
G1 X97.612 Y123.95 E0.015
G1 X97.615 Y123.53 E0.014
G1 X97.668 Y122.925 E0.02
G1 X97.746 Y122.528 E0.013
G1 X97.803 Y122.352 E0.006
G1 X98.132 Y121.553 E0.029
G1 X98.149 Y121.427 E0.004
G1 X98.146 Y121.316 E0.004
G1 X98.123 Y121.199 E0.004
G1 X98.079 Y121.087 E0.004
G1 X98.018 Y120.984 E0.004
G1 X97.94 Y120.894 E0.004
G1 X97.843 Y120.813 E0.004
G1 X96.914 Y120.35 E0.035
G1 X96.504 Y120.126 E0.015
G1 X96.292 Y120.054 E0.008
G1 X96.173 Y120.043 E0.004
G1 X96.052 Y120.055 E0.004
G1 X95.928 Y120.089 E0.004
G1 X95.73 Y120.203 E0.008
G1 X95.58 Y120.376 E0.007
G1 X95.193 Y121.022 E0.025
G1 X95.081 Y121.173 E0.007
G1 X94.672 Y121.595 E0.019
G1 X94.35 Y121.866 E0.014
G1 X94.012 Y122.116 E0.014
G1 X93.654 Y122.35 E0.014
G1 X93.28 Y122.571 E0.015
G1 X92.588 Y122.921 E0.026
G1 X91.792 Y122.341 E0.032
G1 X91.91 Y121.576 E0.026
G1 X92.001 Y121.165 E0.014
G1 X92.117 Y120.739 E0.015
G1 X92.251 Y120.34 E0.014
G1 X92.407 Y119.956 E0.013
G1 X92.684 Y119.431 E0.02
G1 X92.793 Y119.278 E0.006
G1 X93.288 Y118.71 E0.026
G1 X93.406 Y118.515 E0.007
G1 X93.454 Y118.28 E0.008
G1 X93.447 Y118.161 E0.004
G1 X93.42 Y118.045 E0.004
G1 X93.374 Y117.934 E0.004
G1 X93.31 Y117.833 E0.004
G1 X92.172 Y116.694 E0.054
G1 X92.066 Y116.626 E0.004
G1 X91.955 Y116.58 E0.004
G1 X91.72 Y116.546 E0.008
G1 X91.485 Y116.594 E0.008
G1 X91.378 Y116.648 E0.004
G1 X90.722 Y117.207 E0.028
G1 X90.569 Y117.316 E0.007
G1 X90.226 Y117.509 E0.013
G1 X90.044 Y117.594 E0.006
G1 X89.66 Y117.749 E0.014
G1 X89.261 Y117.883 E0.014
G1 X88.848 Y117.996 E0.014
G1 X88.424 Y118.09 E0.015
G1 X87.659 Y118.208 E0.025
G1 X87.079 Y117.412 E0.033
G1 X87.429 Y116.72 E0.026
G1 X87.643 Y116.357 E0.014
G1 X87.884 Y115.988 E0.015
G1 X88.126 Y115.66 E0.013
G1 X88.399 Y115.334 E0.014
G1 X88.827 Y114.919 E0.02
G1 X88.978 Y114.807 E0.007
G1 X89.624 Y114.42 E0.025
G1 X89.797 Y114.27 E0.007
G1 X89.915 Y114.062 E0.008
G1 X89.947 Y113.938 E0.004
G1 X89.957 Y113.827 E0.004
G1 X89.946 Y113.708 E0.004
G1 X89.874 Y113.496 E0.008
G1 X89.647 Y113.08 E0.015
G1 X89.187 Y112.157 E0.035
G1 X89.106 Y112.06 E0.004
G1 X89.015 Y111.982 E0.004
G1 X88.905 Y111.917 E0.004
G1 X88.683 Y111.853 E0.008
G1 X88.563 Y111.851 E0.004
G1 X88.445 Y111.869 E0.004
G1 X87.648 Y112.197 E0.028
G1 X87.472 Y112.254 E0.006
G1 X86.885 Y112.356 E0.02
G1 X86.47 Y112.385 E0.014
G1 X86.05 Y112.388 E0.014
G1 X85.623 Y112.368 E0.014
G1 X85.191 Y112.326 E0.015
G1 X84.426 Y112.203 E0.026
G1 X84.121 Y111.266 E0.032
G1 X84.658 Y110.726 E0.026
G1 X84.993 Y110.428 E0.015
G1 X85.327 Y110.161 E0.014
G1 X85.668 Y109.916 E0.014
G1 X86.189 Y109.604 E0.02
G1 X86.55 Y109.436 E0.013
G1 X86.732 Y109.376 E0.007
G1 X87.452 Y109.211 E0.024
G1 X87.569 Y109.174 E0.004
G1 X87.676 Y109.118 E0.004
G1 X87.853 Y108.958 E0.008
G1 X87.964 Y108.747 E0.008
G1 X87.993 Y108.63 E0.004
G1 X88 Y108.504 E0.004
G1 X87.746 Y106.914 E0.054
G1 X87.641 Y106.7 E0.008
G1 X87.56 Y106.609 E0.004
G1 X87.461 Y106.53 E0.004
G1 X87.252 Y106.437 E0.008
G1 X87.132 Y106.416 E0.004
G1 X86.274 Y106.483 E0.028
G1 X86.088 Y106.482 E0.006
G1 X85.498 Y106.398 E0.02
G1 X85.095 Y106.297 E0.014
G1 X84.695 Y106.171 E0.014
G1 X84.294 Y106.02 E0.014
G1 X83.896 Y105.846 E0.015
G1 X83.207 Y105.492 E0.026
G1 X83.208 Y104.507 E0.032
G1 X83.896 Y104.154 E0.026
G1 X84.294 Y103.98 E0.014
G1 X84.695 Y103.829 E0.015
G1 X85.095 Y103.703 E0.014
G1 X85.498 Y103.602 E0.013
G1 X86.088 Y103.518 E0.02
G1 X86.274 Y103.517 E0.006
G1 X87.021 Y103.583 E0.025
G1 X87.132 Y103.584 E0.004
G1 X87.252 Y103.563 E0.004
G1 X87.364 Y103.524 E0.004
G1 X87.469 Y103.465 E0.004
G1 X87.642 Y103.299 E0.008
G1 X87.707 Y103.187 E0.004
G1 X87.769 Y102.978 E0.008
G1 X87.83 Y102.513 E0.015
G1 X88 Y101.496 E0.035
G1 X87.993 Y101.37 E0.004
G1 X87.964 Y101.253 E0.004
G1 X87.853 Y101.042 E0.008
G1 X87.676 Y100.882 E0.008
G1 X87.57 Y100.826 E0.004
G1 X86.743 Y100.627 E0.028
G1 X86.555 Y100.566 E0.006
G1 X86.02 Y100.302 E0.02
G1 X85.668 Y100.084 E0.014
G1 X85.327 Y99.839 E0.014
G1 X84.993 Y99.572 E0.014
G1 X84.668 Y99.283 E0.015
G1 X84.121 Y98.734 E0.026
G1 X84.426 Y97.797 E0.032
G1 X85.191 Y97.674 E0.026
G1 X85.61 Y97.633 E0.014
G1 X86.05 Y97.612 E0.015
G1 X86.47 Y97.615 E0.014
G1 X86.885 Y97.644 E0.014
G1 X87.472 Y97.746 E0.019
G1 X87.648 Y97.803 E0.006
G1 X88.447 Y98.132 E0.029
G1 X88.573 Y98.149 E0.004
G1 X88.684 Y98.146 E0.004
G1 X88.801 Y98.123 E0.004
G1 X88.913 Y98.079 E0.004
G1 X89.016 Y98.018 E0.004
G1 X89.106 Y97.94 E0.004
G1 X89.187 Y97.843 E0.004
G1 X89.917 Y96.406 E0.054
G1 X89.957 Y96.173 E0.008
G1 X89.945 Y96.052 E0.004
G1 X89.911 Y95.928 E0.004
G1 X89.797 Y95.73 E0.008
G1 X89.624 Y95.58 E0.007
G1 X88.978 Y95.193 E0.025
G1 X88.827 Y95.081 E0.007
G1 X88.405 Y94.672 E0.019
G1 X88.134 Y94.35 E0.014
G1 X87.884 Y94.012 E0.014
G1 X87.65 Y93.654 E0.014
G1 X87.429 Y93.28 E0.015
G1 X87.079 Y92.588 E0.026
G1 X87.659 Y91.792 E0.032
G1 X88.424 Y91.91 E0.026
G1 X88.835 Y92.001 E0.014
G1 X89.261 Y92.117 E0.015
G1 X89.66 Y92.251 E0.014
G1 X90.044 Y92.406 E0.014
G1 X90.569 Y92.684 E0.019
G1 X90.722 Y92.793 E0.007
G1 X91.29 Y93.288 E0.025
G1 X91.485 Y93.406 E0.007
G1 X91.72 Y93.454 E0.008
G1 X91.839 Y93.447 E0.004
G1 X91.955 Y93.42 E0.004
G1 X92.066 Y93.374 E0.004
G1 X92.246 Y93.238 E0.008
G1 X92.571 Y92.896 E0.015
G1 X93.306 Y92.172 E0.035
G1 X93.374 Y92.066 E0.004
G1 X93.42 Y91.955 E0.004
G1 X93.454 Y91.72 E0.008
G1 X93.406 Y91.485 E0.008
G1 X93.352 Y91.378 E0.004
G1 X92.793 Y90.722 E0.028
G1 X92.684 Y90.569 E0.007
G1 X92.491 Y90.226 E0.013
G1 X92.251 Y89.66 E0.02
G1 X92.117 Y89.261 E0.014
G1 X92.004 Y88.848 E0.014
G1 X91.91 Y88.424 E0.015
G1 X91.792 Y87.659 E0.026
G1 X92.588 Y87.079 E0.032
G1 X93.28 Y87.429 E0.026
G1 X93.643 Y87.643 E0.014
G1 X94.012 Y87.884 E0.015
G1 X94.34 Y88.126 E0.013
G1 X94.666 Y88.399 E0.014
G1 X95.081 Y88.827 E0.02
G1 X95.193 Y88.978 E0.007
G1 X95.644 Y89.713 E0.028
G1 X95.73 Y89.797 E0.004
G1 X95.938 Y89.915 E0.008
G1 X96.173 Y89.957 E0.008
G1 X96.406 Y89.917 E0.008
G1 X97.843 Y89.187 E0.054
G1 X97.94 Y89.106 E0.004
G1 X98.018 Y89.015 E0.004
G1 X98.083 Y88.905 E0.004
G1 X98.147 Y88.683 E0.008
G1 X98.149 Y88.563 E0.004
G1 X98.099 Y88.342 E0.007
G1 X97.803 Y87.648 E0.025
G1 X97.746 Y87.472 E0.006
G1 X97.644 Y86.885 E0.02
G1 X97.615 Y86.47 E0.014
G1 X97.612 Y86.05 E0.014
G1 X97.632 Y85.623 E0.014
G1 X97.674 Y85.191 E0.015
G1 X97.797 Y84.426 E0.026
G1 X98.734 Y84.121 E0.032
G1 X98.976 Y84.351 E0.011
G1 X99.572 Y84.993 E0.03
G1 X99.839 Y85.327 E0.014
G1 X100.084 Y85.668 E0.014
G1 X100.302 Y86.02 E0.013
G1 X100.564 Y86.55 E0.02
G1 X100.624 Y86.732 E0.007
G1 X100.789 Y87.452 E0.024
G1 X100.826 Y87.569 E0.004
G1 X100.882 Y87.676 E0.004
G1 X101.042 Y87.853 E0.008
G1 X101.143 Y87.917 E0.004
G1 X101.253 Y87.964 E0.004
G1 X101.37 Y87.993 E0.004
G1 X101.496 Y88 E0.004
G1 X103.086 Y87.746 E0.054
G1 X103.3 Y87.641 E0.008
G1 X103.391 Y87.56 E0.004
G1 X103.47 Y87.461 E0.004
G1 X103.563 Y87.252 E0.008
G1 X103.584 Y87.132 E0.004
G1 X103.517 Y86.274 E0.028
G1 X103.518 Y86.088 E0.006
G1 X103.602 Y85.498 E0.02
G1 X103.703 Y85.095 E0.014
G1 X103.829 Y84.695 E0.014
G1 X103.98 Y84.294 E0.014
G1 X104.154 Y83.896 E0.015
G1 X104.508 Y83.207 E0.026
G1 X105.493 Y83.208 E0.032
G1 X105.846 Y83.896 E0.026
G1 X106.02 Y84.294 E0.014
G1 X106.171 Y84.695 E0.015
G1 X106.297 Y85.095 E0.014
G1 X106.398 Y85.498 E0.014
G1 X106.482 Y86.088 E0.019
G1 X106.483 Y86.274 E0.007
G1 X106.417 Y87.021 E0.024
G1 X106.416 Y87.132 E0.004
G1 X106.437 Y87.252 E0.004
G1 X106.476 Y87.364 E0.004
G1 X106.535 Y87.469 E0.004
G1 X106.701 Y87.642 E0.008
G1 X106.813 Y87.707 E0.004
G1 X107.022 Y87.769 E0.008
G1 X107.487 Y87.83 E0.015
G1 X108.504 Y88 E0.035
G1 X108.63 Y87.993 E0.004
G1 X108.747 Y87.964 E0.004
G1 X108.958 Y87.853 E0.008
G1 X109.118 Y87.676 E0.008
G1 X109.174 Y87.57 E0.004
G1 X109.373 Y86.743 E0.028
G1 X109.434 Y86.555 E0.006
G1 X109.698 Y86.02 E0.02
G1 X109.916 Y85.668 E0.014
G1 X110.161 Y85.327 E0.014
G1 X110.428 Y84.993 E0.014
G1 X110.717 Y84.668 E0.015
G1 X111.266 Y84.121 E0.026
;rapid-leaky
G0 X111.362 Y84.527 F7200
;bead-perimeter_inner
G1 X111.888 Y84.701 F960 E0.018
G1 X111.969 Y85.234 E0.018
G1 X112.008 Y85.636 E0.013
G1 X112.028 Y86.057 E0.014
G1 X112.025 Y86.456 E0.014
G1 X111.997 Y86.85 E0.013
G1 X111.905 Y87.382 E0.018
G1 X111.86 Y87.522 E0.005
G1 X111.563 Y88.217 E0.025
G1 X111.516 Y88.367 E0.005
G1 X111.49 Y88.552 E0.006
G1 X111.494 Y88.724 E0.006
G1 X111.531 Y88.903 E0.006
G1 X111.596 Y89.073 E0.006
G1 X111.69 Y89.228 E0.006
G1 X111.807 Y89.364 E0.006
G1 X111.959 Y89.49 E0.007
G1 X113.476 Y90.258 E0.056
G1 X113.647 Y90.301 E0.006
G1 X113.827 Y90.318 E0.006
G1 X114.014 Y90.301 E0.006
G1 X114.198 Y90.25 E0.007
G1 X114.35 Y90.178 E0.005
G1 X114.499 Y90.077 E0.006
G1 X114.631 Y89.948 E0.006
G1 X114.721 Y89.822 E0.006
G1 X115.106 Y89.178 E0.024
G1 X115.199 Y89.053 E0.006
G1 X115.567 Y88.674 E0.017
G1 X115.863 Y88.425 E0.013
G1 X116.194 Y88.18 E0.014
G1 X116.536 Y87.955 E0.013
G1 X116.896 Y87.743 E0.014
G1 X117.375 Y87.496 E0.018
G1 X117.825 Y87.819 E0.019
G1 X117.736 Y88.354 E0.018
G1 X117.646 Y88.761 E0.014
G1 X117.538 Y89.156 E0.013
G1 X117.411 Y89.535 E0.013
G1 X117.268 Y89.889 E0.013
G1 X117.102 Y90.226 E0.013
G1 X116.928 Y90.494 E0.01
G1 X116.43 Y91.065 E0.025
G1 X116.339 Y91.189 E0.006
G1 X116.257 Y91.353 E0.006
G1 X116.206 Y91.53 E0.006
G1 X116.185 Y91.71 E0.006
G1 X116.196 Y91.89 E0.006
G1 X116.236 Y92.066 E0.006
G1 X116.306 Y92.234 E0.006
G1 X116.412 Y92.4 E0.006
G1 X117.177 Y93.153 E0.036
G1 X117.503 Y93.496 E0.016
G1 X117.614 Y93.597 E0.005
G1 X117.769 Y93.695 E0.006
G1 X117.945 Y93.767 E0.006
G1 X118.111 Y93.804 E0.006
G1 X118.29 Y93.815 E0.006
G1 X118.473 Y93.793 E0.006
G1 X118.658 Y93.738 E0.006
G1 X118.812 Y93.66 E0.006
G1 X118.935 Y93.57 E0.005
G1 X119.502 Y93.076 E0.025
G1 X119.629 Y92.985 E0.005
G1 X119.934 Y92.814 E0.012
G1 X120.465 Y92.589 E0.019
G1 X120.844 Y92.462 E0.014
G1 X121.239 Y92.354 E0.013
G1 X121.646 Y92.264 E0.014
G1 X122.178 Y92.176 E0.018
G1 X122.506 Y92.622 E0.018
G1 X122.257 Y93.105 E0.019
G1 X122.051 Y93.453 E0.013
G1 X121.82 Y93.806 E0.014
G1 X121.591 Y94.118 E0.013
G1 X121.334 Y94.423 E0.013
G1 X121.07 Y94.693 E0.013
G1 X120.822 Y94.894 E0.01
G1 X120.178 Y95.279 E0.025
G1 X120.052 Y95.369 E0.005
G1 X119.923 Y95.501 E0.007
G1 X119.821 Y95.651 E0.006
G1 X119.744 Y95.816 E0.006
G1 X119.697 Y96.001 E0.006
G1 X119.682 Y96.174 E0.006
G1 X119.699 Y96.353 E0.006
G1 X119.742 Y96.524 E0.006
G1 X120.51 Y98.041 E0.056
G1 X120.636 Y98.193 E0.007
G1 X120.775 Y98.312 E0.006
G1 X120.938 Y98.408 E0.006
G1 X121.098 Y98.47 E0.006
G1 X121.276 Y98.506 E0.006
G1 X121.46 Y98.51 E0.006
G1 X121.637 Y98.483 E0.006
G1 X121.783 Y98.437 E0.005
G1 X122.478 Y98.14 E0.025
G1 X122.619 Y98.095 E0.005
G1 X122.971 Y98.025 E0.012
G1 X123.544 Y97.975 E0.019
G1 X123.943 Y97.972 E0.013
G1 X124.351 Y97.991 E0.014
G1 X124.767 Y98.031 E0.014
G1 X125.299 Y98.112 E0.018
G1 X125.473 Y98.638 E0.018
G1 X125.097 Y99.011 E0.018
G1 X124.775 Y99.297 E0.014
G1 X124.456 Y99.551 E0.014
G1 X124.141 Y99.778 E0.013
G1 X123.797 Y99.992 E0.013
G1 X123.317 Y100.229 E0.018
G1 X123.171 Y100.277 E0.005
G1 X122.436 Y100.446 E0.025
G1 X122.29 Y100.493 E0.005
G1 X122.129 Y100.577 E0.006
G1 X121.984 Y100.689 E0.006
G1 X121.856 Y100.829 E0.007
G1 X121.763 Y100.974 E0.005
G1 X121.693 Y101.138 E0.006
G1 X121.65 Y101.316 E0.006
G1 X121.638 Y101.515 E0.007
G1 X121.908 Y103.19 E0.057
G1 X121.972 Y103.354 E0.005
G1 X122.067 Y103.513 E0.007
G1 X122.189 Y103.65 E0.006
G1 X122.329 Y103.765 E0.006
G1 X122.499 Y103.858 E0.006
G1 X122.659 Y103.913 E0.006
G1 X122.838 Y103.945 E0.006
G1 X123.741 Y103.877 E0.03
G1 X123.89 Y103.878 E0.005
G1 X124.424 Y103.954 E0.018
G1 X124.807 Y104.049 E0.013
G1 X125.188 Y104.169 E0.013
G1 X125.559 Y104.309 E0.013
G1 X125.953 Y104.481 E0.015
G1 X126.437 Y104.724 E0.018
G1 X126.434 Y105.278 E0.018
G1 X126.334 Y105.333 E0.004
G1 X125.57 Y105.686 E0.028
G1 X125.188 Y105.831 E0.014
G1 X124.807 Y105.951 E0.013
G1 X124.424 Y106.046 E0.013
G1 X123.89 Y106.122 E0.018
G1 X123.741 Y106.123 E0.005
G1 X122.838 Y106.055 E0.03
G1 X122.657 Y106.087 E0.006
G1 X122.488 Y106.147 E0.006
G1 X122.327 Y106.236 E0.006
G1 X122.189 Y106.35 E0.006
G1 X122.065 Y106.489 E0.006
G1 X121.968 Y106.657 E0.007
G1 X121.908 Y106.811 E0.005
G1 X121.876 Y106.961 E0.005
G1 X121.814 Y107.434 E0.016
G1 X121.638 Y108.485 E0.036
G1 X121.65 Y108.684 E0.006
G1 X121.693 Y108.862 E0.006
G1 X121.764 Y109.026 E0.006
G1 X121.862 Y109.18 E0.006
G1 X121.987 Y109.314 E0.006
G1 X122.129 Y109.423 E0.006
G1 X122.29 Y109.507 E0.006
G1 X122.441 Y109.556 E0.006
G1 X123.161 Y109.72 E0.024
G1 X123.312 Y109.77 E0.006
G1 X123.637 Y109.92 E0.012
G1 X124.132 Y110.216 E0.019
G1 X124.456 Y110.449 E0.013
G1 X124.775 Y110.703 E0.014
G1 X125.087 Y110.981 E0.013
G1 X125.473 Y111.362 E0.018
G1 X125.299 Y111.888 E0.019
G1 X124.766 Y111.969 E0.018
G1 X124.364 Y112.008 E0.013
G1 X123.943 Y112.028 E0.014
G1 X123.544 Y112.025 E0.014
G1 X123.15 Y111.997 E0.013
G1 X122.618 Y111.905 E0.018
G1 X122.478 Y111.86 E0.005
G1 X121.783 Y111.563 E0.025
G1 X121.633 Y111.516 E0.005
G1 X121.448 Y111.49 E0.006
G1 X121.276 Y111.494 E0.006
G1 X121.097 Y111.531 E0.006
G1 X120.927 Y111.596 E0.006
G1 X120.772 Y111.69 E0.006
G1 X120.636 Y111.807 E0.006
G1 X120.51 Y111.959 E0.007
G1 X119.742 Y113.476 E0.056
G1 X119.699 Y113.647 E0.006
G1 X119.682 Y113.827 E0.006
G1 X119.699 Y114.014 E0.006
G1 X119.75 Y114.198 E0.007
G1 X119.822 Y114.35 E0.005
G1 X119.923 Y114.499 E0.006
G1 X120.052 Y114.631 E0.006
G1 X120.178 Y114.721 E0.005
G1 X120.822 Y115.106 E0.025
G1 X120.947 Y115.199 E0.006
G1 X121.326 Y115.567 E0.017
G1 X121.583 Y115.873 E0.013
G1 X121.82 Y116.194 E0.014
G1 X122.045 Y116.536 E0.013
G1 X122.257 Y116.895 E0.014
G1 X122.504 Y117.376 E0.018
G1 X122.181 Y117.825 E0.019
G1 X121.646 Y117.736 E0.018
G1 X121.239 Y117.646 E0.013
G1 X120.844 Y117.538 E0.014
G1 X120.465 Y117.411 E0.013
G1 X119.934 Y117.186 E0.02
G1 X119.629 Y117.015 E0.011
G1 X119.502 Y116.924 E0.005
G1 X118.935 Y116.43 E0.025
G1 X118.811 Y116.339 E0.006
G1 X118.647 Y116.257 E0.006
G1 X118.47 Y116.206 E0.006
G1 X118.29 Y116.185 E0.006
G1 X118.11 Y116.196 E0.006
G1 X117.934 Y116.236 E0.006
G1 X117.766 Y116.306 E0.006
G1 X117.614 Y116.403 E0.006
G1 X117.503 Y116.504 E0.005
G1 X117.172 Y116.852 E0.016
G1 X116.409 Y117.603 E0.035
G1 X116.301 Y117.777 E0.007
G1 X116.236 Y117.935 E0.006
G1 X116.196 Y118.11 E0.006
G1 X116.185 Y118.29 E0.006
G1 X116.206 Y118.47 E0.006
G1 X116.257 Y118.647 E0.006
G1 X116.339 Y118.811 E0.006
G1 X116.43 Y118.935 E0.005
G1 X116.924 Y119.502 E0.025
G1 X117.102 Y119.774 E0.011
G1 X117.263 Y120.1 E0.012
G1 X117.411 Y120.465 E0.013
G1 X117.538 Y120.844 E0.014
G1 X117.646 Y121.239 E0.013
G1 X117.736 Y121.646 E0.014
G1 X117.824 Y122.178 E0.018
G1 X117.378 Y122.506 E0.018
G1 X116.895 Y122.257 E0.018
G1 X116.547 Y122.051 E0.014
G1 X116.194 Y121.82 E0.014
G1 X115.873 Y121.583 E0.013
G1 X115.572 Y121.33 E0.013
G1 X115.311 Y121.074 E0.012
G1 X115.106 Y120.822 E0.011
G1 X114.721 Y120.178 E0.025
G1 X114.631 Y120.052 E0.005
G1 X114.499 Y119.923 E0.006
G1 X114.349 Y119.821 E0.007
G1 X114.187 Y119.746 E0.005
G1 X114.011 Y119.699 E0.007
G1 X113.827 Y119.682 E0.006
G1 X113.647 Y119.699 E0.006
G1 X113.476 Y119.742 E0.006
G1 X111.959 Y120.51 E0.056
G1 X111.807 Y120.636 E0.007
G1 X111.69 Y120.772 E0.006
G1 X111.595 Y120.929 E0.006
G1 X111.527 Y121.108 E0.006
G1 X111.494 Y121.278 E0.006
G1 X111.49 Y121.46 E0.006
G1 X111.517 Y121.637 E0.006
G1 X111.563 Y121.783 E0.005
G1 X111.862 Y122.484 E0.025
G1 X111.905 Y122.618 E0.005
G1 X111.997 Y123.15 E0.018
G1 X112.025 Y123.544 E0.013
G1 X112.028 Y123.943 E0.013
G1 X112.01 Y124.338 E0.014
G1 X111.969 Y124.767 E0.014
G1 X111.888 Y125.299 E0.018
G1 X111.362 Y125.473 E0.018
G1 X110.989 Y125.097 E0.018
G1 X110.703 Y124.775 E0.014
G1 X110.449 Y124.456 E0.014
G1 X110.216 Y124.132 E0.013
G1 X110.008 Y123.798 E0.013
G1 X109.839 Y123.473 E0.012
G1 X109.723 Y123.171 E0.011
G1 X109.559 Y122.453 E0.024
G1 X109.508 Y122.292 E0.006
G1 X109.423 Y122.129 E0.006
G1 X109.314 Y121.987 E0.006
G1 X109.18 Y121.862 E0.006
G1 X109.026 Y121.764 E0.006
G1 X108.862 Y121.693 E0.006
G1 X108.684 Y121.65 E0.006
G1 X108.485 Y121.638 E0.007
G1 X107.44 Y121.813 E0.035
G1 X106.961 Y121.876 E0.016
G1 X106.81 Y121.908 E0.005
G1 X106.643 Y121.974 E0.006
G1 X106.477 Y122.075 E0.007
G1 X106.349 Y122.19 E0.006
G1 X106.235 Y122.329 E0.006
G1 X106.142 Y122.499 E0.006
G1 X106.087 Y122.659 E0.006
G1 X106.055 Y122.838 E0.006
G1 X106.123 Y123.741 E0.03
G1 X106.122 Y123.89 E0.005
G1 X106.046 Y124.424 E0.018
G1 X105.951 Y124.807 E0.013
G1 X105.831 Y125.188 E0.013
G1 X105.686 Y125.57 E0.014
G1 X105.338 Y126.323 E0.027
G1 X105.276 Y126.437 E0.005
G1 X104.722 Y126.434 E0.018
G1 X104.48 Y125.953 E0.018
G1 X104.314 Y125.57 E0.014
G1 X104.169 Y125.188 E0.013
G1 X104.049 Y124.807 E0.014
G1 X103.954 Y124.424 E0.013
G1 X103.878 Y123.89 E0.018
G1 X103.877 Y123.741 E0.005
G1 X103.945 Y122.838 E0.03
G1 X103.913 Y122.657 E0.006
G1 X103.853 Y122.488 E0.006
G1 X103.764 Y122.327 E0.006
G1 X103.65 Y122.189 E0.006
G1 X103.511 Y122.065 E0.006
G1 X103.343 Y121.968 E0.007
G1 X103.189 Y121.908 E0.005
G1 X101.515 Y121.638 E0.057
G1 X101.316 Y121.65 E0.006
G1 X101.138 Y121.693 E0.006
G1 X100.974 Y121.764 E0.006
G1 X100.82 Y121.862 E0.006
G1 X100.686 Y121.987 E0.006
G1 X100.577 Y122.129 E0.006
G1 X100.493 Y122.29 E0.006
G1 X100.444 Y122.441 E0.006
G1 X100.28 Y123.161 E0.024
G1 X100.23 Y123.312 E0.006
G1 X99.991 Y123.798 E0.018
G1 X99.784 Y124.132 E0.013
G1 X99.551 Y124.456 E0.013
G1 X99.297 Y124.775 E0.013
G1 X99.019 Y125.087 E0.014
G1 X98.638 Y125.473 E0.018
G1 X98.112 Y125.299 E0.019
G1 X98.031 Y124.766 E0.018
G1 X97.992 Y124.364 E0.013
G1 X97.972 Y123.943 E0.014
G1 X97.975 Y123.544 E0.014
G1 X98.023 Y122.982 E0.018
G1 X98.095 Y122.618 E0.013
G1 X98.14 Y122.478 E0.004
G1 X98.437 Y121.783 E0.026
G1 X98.484 Y121.633 E0.005
G1 X98.51 Y121.448 E0.006
G1 X98.506 Y121.276 E0.006
G1 X98.469 Y121.097 E0.006
G1 X98.404 Y120.927 E0.006
G1 X98.31 Y120.772 E0.006
G1 X98.193 Y120.636 E0.006
G1 X98.041 Y120.51 E0.006
G1 X96.524 Y119.742 E0.057
G1 X96.353 Y119.699 E0.006
G1 X96.173 Y119.682 E0.006
G1 X95.986 Y119.699 E0.006
G1 X95.802 Y119.75 E0.007
G1 X95.65 Y119.822 E0.005
G1 X95.501 Y119.923 E0.006
G1 X95.369 Y120.052 E0.006
G1 X95.279 Y120.178 E0.005
G1 X94.894 Y120.822 E0.025
G1 X94.689 Y121.075 E0.011
G1 X94.433 Y121.326 E0.012
G1 X94.127 Y121.583 E0.013
G1 X93.806 Y121.82 E0.014
G1 X93.464 Y122.045 E0.013
G1 X93.104 Y122.257 E0.014
G1 X92.622 Y122.506 E0.018
G1 X92.176 Y122.178 E0.019
G1 X92.264 Y121.646 E0.018
G1 X92.351 Y121.251 E0.013
G1 X92.462 Y120.844 E0.014
G1 X92.589 Y120.465 E0.013
G1 X92.811 Y119.94 E0.019
G1 X92.985 Y119.629 E0.012
G1 X93.076 Y119.502 E0.005
G1 X93.57 Y118.935 E0.025
G1 X93.661 Y118.811 E0.005
G1 X93.743 Y118.647 E0.007
G1 X93.794 Y118.47 E0.006
G1 X93.815 Y118.29 E0.006
G1 X93.804 Y118.109 E0.006
G1 X93.764 Y117.934 E0.006
G1 X93.694 Y117.766 E0.006
G1 X93.597 Y117.614 E0.006
G1 X93.496 Y117.503 E0.005
G1 X93.148 Y117.172 E0.016
G1 X92.4 Y116.412 E0.035
G1 X92.234 Y116.306 E0.007
G1 X92.066 Y116.236 E0.006
G1 X91.89 Y116.196 E0.006
G1 X91.71 Y116.185 E0.006
G1 X91.53 Y116.206 E0.006
G1 X91.353 Y116.257 E0.006
G1 X91.189 Y116.339 E0.006
G1 X91.065 Y116.43 E0.005
G1 X90.498 Y116.924 E0.025
G1 X90.226 Y117.102 E0.011
G1 X89.9 Y117.263 E0.012
G1 X89.535 Y117.411 E0.013
G1 X89.156 Y117.538 E0.013
G1 X88.761 Y117.646 E0.014
G1 X88.354 Y117.736 E0.014
G1 X87.822 Y117.824 E0.018
G1 X87.494 Y117.378 E0.018
G1 X87.743 Y116.895 E0.018
G1 X87.949 Y116.547 E0.014
G1 X88.18 Y116.194 E0.014
G1 X88.409 Y115.882 E0.013
G1 X88.666 Y115.577 E0.013
G1 X88.93 Y115.307 E0.013
G1 X89.178 Y115.106 E0.01
G1 X89.822 Y114.721 E0.025
G1 X89.948 Y114.631 E0.005
G1 X90.077 Y114.499 E0.006
G1 X90.179 Y114.349 E0.006
G1 X90.256 Y114.184 E0.007
G1 X90.303 Y113.999 E0.006
G1 X90.318 Y113.826 E0.006
G1 X90.301 Y113.647 E0.006
G1 X90.258 Y113.476 E0.005
G1 X89.49 Y111.959 E0.057
G1 X89.364 Y111.807 E0.007
G1 X89.225 Y111.688 E0.006
G1 X89.062 Y111.592 E0.006
G1 X88.902 Y111.53 E0.006
G1 X88.724 Y111.494 E0.006
G1 X88.54 Y111.49 E0.006
G1 X88.363 Y111.517 E0.006
G1 X88.217 Y111.563 E0.005
G1 X87.522 Y111.86 E0.025
G1 X87.381 Y111.905 E0.005
G1 X87.029 Y111.975 E0.012
G1 X86.456 Y112.025 E0.019
G1 X86.057 Y112.028 E0.013
G1 X85.649 Y112.009 E0.014
G1 X85.233 Y111.969 E0.014
G1 X84.701 Y111.888 E0.018
G1 X84.527 Y111.362 E0.018
G1 X84.903 Y110.989 E0.018
G1 X85.225 Y110.703 E0.014
G1 X85.544 Y110.449 E0.014
G1 X85.868 Y110.216 E0.013
G1 X86.203 Y110.008 E0.013
G1 X86.683 Y109.771 E0.018
G1 X86.829 Y109.723 E0.005
G1 X87.547 Y109.559 E0.024
G1 X87.708 Y109.508 E0.006
G1 X87.871 Y109.423 E0.006
G1 X88.013 Y109.314 E0.006
G1 X88.138 Y109.18 E0.006
G1 X88.236 Y109.026 E0.006
G1 X88.307 Y108.862 E0.006
G1 X88.35 Y108.684 E0.006
G1 X88.362 Y108.485 E0.007
G1 X88.092 Y106.81 E0.056
G1 X88.028 Y106.646 E0.006
G1 X87.933 Y106.487 E0.006
G1 X87.808 Y106.347 E0.007
G1 X87.662 Y106.23 E0.006
G1 X87.512 Y106.146 E0.006
G1 X87.343 Y106.087 E0.006
G1 X87.162 Y106.055 E0.006
G1 X86.259 Y106.123 E0.03
G1 X86.11 Y106.122 E0.005
G1 X85.576 Y106.046 E0.018
G1 X85.193 Y105.951 E0.013
G1 X84.812 Y105.831 E0.013
G1 X84.43 Y105.686 E0.014
G1 X84.047 Y105.52 E0.014
G1 X83.563 Y105.276 E0.018
G1 X83.566 Y104.722 E0.018
G1 X83.666 Y104.667 E0.004
G1 X84.43 Y104.314 E0.028
G1 X84.812 Y104.169 E0.013
G1 X85.193 Y104.049 E0.014
G1 X85.576 Y103.954 E0.013
G1 X86.11 Y103.878 E0.018
G1 X86.259 Y103.877 E0.005
G1 X87.162 Y103.945 E0.03
G1 X87.343 Y103.913 E0.006
G1 X87.512 Y103.853 E0.006
G1 X87.673 Y103.764 E0.006
G1 X87.811 Y103.65 E0.006
G1 X87.935 Y103.511 E0.006
G1 X88.032 Y103.343 E0.007
G1 X88.092 Y103.189 E0.005
G1 X88.124 Y103.039 E0.005
G1 X88.186 Y102.566 E0.016
G1 X88.362 Y101.515 E0.036
G1 X88.35 Y101.317 E0.006
G1 X88.307 Y101.138 E0.006
G1 X88.236 Y100.974 E0.006
G1 X88.138 Y100.82 E0.006
G1 X88.013 Y100.686 E0.006
G1 X87.871 Y100.577 E0.006
G1 X87.71 Y100.493 E0.006
G1 X87.559 Y100.444 E0.006
G1 X86.839 Y100.28 E0.024
G1 X86.688 Y100.23 E0.005
G1 X86.363 Y100.08 E0.012
G1 X85.868 Y99.784 E0.02
G1 X85.544 Y99.551 E0.013
G1 X85.225 Y99.297 E0.013
G1 X84.913 Y99.019 E0.014
G1 X84.527 Y98.638 E0.018
G1 X84.701 Y98.112 E0.019
G1 X85.234 Y98.031 E0.018
G1 X85.636 Y97.992 E0.013
G1 X86.057 Y97.972 E0.014
G1 X86.456 Y97.975 E0.013
G1 X86.85 Y98.003 E0.014
G1 X87.382 Y98.095 E0.018
G1 X87.522 Y98.14 E0.004
G1 X88.217 Y98.437 E0.026
G1 X88.367 Y98.484 E0.005
G1 X88.552 Y98.51 E0.006
G1 X88.724 Y98.506 E0.006
G1 X88.903 Y98.469 E0.006
G1 X89.073 Y98.404 E0.006
G1 X89.228 Y98.31 E0.006
G1 X89.364 Y98.193 E0.006
G1 X89.49 Y98.041 E0.006
G1 X90.258 Y96.524 E0.057
G1 X90.301 Y96.353 E0.006
G1 X90.318 Y96.173 E0.006
G1 X90.301 Y95.986 E0.006
G1 X90.25 Y95.802 E0.006
G1 X90.178 Y95.65 E0.006
G1 X90.077 Y95.501 E0.006
G1 X89.948 Y95.369 E0.006
G1 X89.822 Y95.279 E0.005
G1 X89.178 Y94.894 E0.025
G1 X88.925 Y94.689 E0.011
G1 X88.674 Y94.433 E0.012
G1 X88.417 Y94.127 E0.013
G1 X88.18 Y93.806 E0.014
G1 X87.955 Y93.464 E0.013
G1 X87.743 Y93.104 E0.014
G1 X87.494 Y92.622 E0.018
G1 X87.822 Y92.176 E0.019
G1 X88.354 Y92.264 E0.018
G1 X88.749 Y92.351 E0.013
G1 X89.156 Y92.462 E0.014
G1 X89.535 Y92.589 E0.013
G1 X90.06 Y92.811 E0.019
G1 X90.371 Y92.985 E0.012
G1 X90.498 Y93.076 E0.005
G1 X91.065 Y93.57 E0.025
G1 X91.189 Y93.661 E0.005
G1 X91.353 Y93.743 E0.007
G1 X91.53 Y93.794 E0.006
G1 X91.71 Y93.815 E0.006
G1 X91.891 Y93.804 E0.006
G1 X92.066 Y93.764 E0.006
G1 X92.234 Y93.694 E0.006
G1 X92.386 Y93.597 E0.006
G1 X92.497 Y93.496 E0.005
G1 X92.828 Y93.148 E0.016
G1 X93.588 Y92.4 E0.035
G1 X93.694 Y92.234 E0.007
G1 X93.764 Y92.066 E0.006
G1 X93.804 Y91.891 E0.006
G1 X93.815 Y91.71 E0.006
G1 X93.794 Y91.53 E0.006
G1 X93.743 Y91.353 E0.006
G1 X93.661 Y91.189 E0.006
G1 X93.57 Y91.065 E0.005
G1 X93.076 Y90.498 E0.025
G1 X92.898 Y90.225 E0.011
G1 X92.737 Y89.9 E0.012
G1 X92.589 Y89.535 E0.013
G1 X92.462 Y89.156 E0.013
G1 X92.354 Y88.761 E0.014
G1 X92.264 Y88.354 E0.014
G1 X92.176 Y87.822 E0.018
G1 X92.561 Y87.537 E0.016
G1 X92.622 Y87.494 E0.002
G1 X93.105 Y87.743 E0.018
G1 X93.453 Y87.949 E0.014
G1 X93.806 Y88.18 E0.014
G1 X94.118 Y88.409 E0.013
G1 X94.423 Y88.666 E0.013
G1 X94.801 Y89.053 E0.018
G1 X94.894 Y89.178 E0.005
G1 X95.279 Y89.822 E0.025
G1 X95.369 Y89.948 E0.005
G1 X95.501 Y90.077 E0.006
G1 X95.651 Y90.179 E0.006
G1 X95.816 Y90.256 E0.006
G1 X96.002 Y90.303 E0.007
G1 X96.174 Y90.318 E0.006
G1 X96.353 Y90.301 E0.006
G1 X96.524 Y90.258 E0.005
G1 X98.041 Y89.49 E0.057
G1 X98.193 Y89.364 E0.007
G1 X98.312 Y89.225 E0.006
G1 X98.408 Y89.062 E0.006
G1 X98.47 Y88.902 E0.006
G1 X98.506 Y88.724 E0.006
G1 X98.51 Y88.54 E0.006
G1 X98.483 Y88.363 E0.006
G1 X98.437 Y88.217 E0.005
G1 X98.14 Y87.522 E0.025
G1 X98.095 Y87.381 E0.005
G1 X98.003 Y86.849 E0.018
G1 X97.975 Y86.456 E0.013
G1 X97.972 Y86.057 E0.013
G1 X97.991 Y85.649 E0.014
G1 X98.031 Y85.233 E0.014
G1 X98.112 Y84.701 E0.018
G1 X98.638 Y84.527 E0.018
G1 X99.011 Y84.903 E0.018
G1 X99.297 Y85.225 E0.014
G1 X99.551 Y85.544 E0.014
G1 X99.784 Y85.868 E0.013
G1 X100.075 Y86.352 E0.019
G1 X100.229 Y86.683 E0.012
G1 X100.277 Y86.829 E0.005
G1 X100.441 Y87.547 E0.024
G1 X100.492 Y87.708 E0.006
G1 X100.577 Y87.871 E0.006
G1 X100.686 Y88.013 E0.006
G1 X100.82 Y88.138 E0.006
G1 X100.974 Y88.236 E0.006
G1 X101.138 Y88.307 E0.006
G1 X101.316 Y88.35 E0.006
G1 X101.515 Y88.362 E0.007
G1 X102.56 Y88.187 E0.035
G1 X103.039 Y88.124 E0.016
G1 X103.19 Y88.092 E0.005
G1 X103.354 Y88.028 E0.006
G1 X103.513 Y87.933 E0.006
G1 X103.653 Y87.808 E0.007
G1 X103.77 Y87.662 E0.006
G1 X103.854 Y87.512 E0.006
G1 X103.913 Y87.343 E0.005
G1 X103.945 Y87.162 E0.007
G1 X103.877 Y86.259 E0.03
G1 X103.878 Y86.11 E0.005
G1 X103.954 Y85.576 E0.018
G1 X104.049 Y85.193 E0.013
G1 X104.169 Y84.812 E0.013
G1 X104.314 Y84.43 E0.014
G1 X104.48 Y84.047 E0.013
G1 X104.724 Y83.563 E0.019
G1 X104.799 Y83.561 E0.002
G1 X105.278 Y83.566 E0.016
G1 X105.52 Y84.047 E0.018
G1 X105.686 Y84.43 E0.014
G1 X105.831 Y84.812 E0.013
G1 X105.951 Y85.193 E0.014
G1 X106.046 Y85.576 E0.013
G1 X106.122 Y86.11 E0.018
G1 X106.123 Y86.259 E0.005
G1 X106.055 Y87.162 E0.03
G1 X106.087 Y87.343 E0.006
G1 X106.147 Y87.512 E0.006
G1 X106.236 Y87.673 E0.006
G1 X106.35 Y87.811 E0.006
G1 X106.489 Y87.935 E0.006
G1 X106.657 Y88.032 E0.007
G1 X106.811 Y88.092 E0.005
G1 X106.961 Y88.124 E0.005
G1 X107.434 Y88.186 E0.016
G1 X108.485 Y88.362 E0.035
G1 X108.684 Y88.35 E0.007
G1 X108.862 Y88.307 E0.006
G1 X109.026 Y88.236 E0.006
G1 X109.18 Y88.138 E0.006
G1 X109.314 Y88.013 E0.006
G1 X109.423 Y87.871 E0.006
G1 X109.507 Y87.71 E0.006
G1 X109.556 Y87.559 E0.006
G1 X109.72 Y86.839 E0.024
G1 X109.77 Y86.688 E0.005
G1 X109.92 Y86.363 E0.012
G1 X110.216 Y85.868 E0.019
G1 X110.449 Y85.544 E0.014
G1 X110.703 Y85.225 E0.013
G1 X110.981 Y84.913 E0.014
G1 X111.362 Y84.527 E0.018
G1 F2100 E-0.5
;rapid-dry
G0 X106.475 Y100.013 F7200
G1 F2100 E0.5
;bead-perimeter_outer
G1 X106.028 Y99.903 F720 E0.016
G1 X105.574 Y99.832 E0.015
G1 X105.116 Y99.801 E0.015
G1 X104.655 Y99.811 E0.015
G1 X104.198 Y99.862 E0.016
G1 X103.747 Y99.953 E0.015
G1 X103.306 Y100.084 E0.015
G1 X102.878 Y100.252 E0.016
G1 X102.466 Y100.458 E0.015
G1 X102.075 Y100.701 E0.015
G1 X101.706 Y100.976 E0.016
G1 X101.364 Y101.283 E0.015
G1 X101.05 Y101.619 E0.015
G1 X100.766 Y101.981 E0.015
G1 X100.515 Y102.367 E0.016
G1 X100.301 Y102.773 E0.015
G1 X100.122 Y103.198 E0.015
G1 X99.979 Y103.649 E0.016
G1 X99.879 Y104.098 E0.015
G1 X99.821 Y104.54 E0.015
G1 X99.8 Y105 E0.016
G1 X99.821 Y105.46 E0.015
G1 X99.881 Y105.915 E0.015
G1 X99.982 Y106.365 E0.015
G1 X100.122 Y106.803 E0.016
G1 X100.301 Y107.227 E0.015
G1 X100.522 Y107.645 E0.016
G1 X100.766 Y108.019 E0.015
G1 X101.05 Y108.381 E0.015
G1 X101.364 Y108.717 E0.015
G1 X101.706 Y109.024 E0.016
G1 X102.075 Y109.299 E0.015
G1 X102.466 Y109.542 E0.015
G1 X102.878 Y109.748 E0.016
G1 X103.306 Y109.916 E0.015
G1 X103.76 Y110.05 E0.016
G1 X104.198 Y110.138 E0.014
G1 X104.655 Y110.189 E0.016
G1 X105.116 Y110.199 E0.015
G1 X105.574 Y110.168 E0.015
G1 X106.028 Y110.097 E0.016
G1 X106.475 Y109.987 E0.015
G1 X106.911 Y109.837 E0.015
G1 X107.342 Y109.643 E0.016
G1 X107.732 Y109.424 E0.015
G1 X108.112 Y109.166 E0.015
G1 X108.469 Y108.875 E0.015
G1 X108.797 Y108.553 E0.016
G1 X109.105 Y108.192 E0.015
G1 X109.363 Y107.829 E0.015
G1 X109.596 Y107.433 E0.016
G1 X109.794 Y107.017 E0.015
G1 X109.953 Y106.585 E0.015
G1 X110.073 Y106.141 E0.016
G1 X110.154 Y105.689 E0.015
G1 X110.195 Y105.23 E0.015
G1 Y104.77 E0.015
G1 X110.152 Y104.298 E0.016
G1 X110.07 Y103.846 E0.015
G1 X109.953 Y103.415 E0.015
G1 X109.794 Y102.983 E0.016
G1 X109.596 Y102.567 E0.015
G1 X109.363 Y102.171 E0.015
G1 X109.097 Y101.797 E0.016
G1 X108.797 Y101.447 E0.015
G1 X108.469 Y101.125 E0.015
G1 X108.112 Y100.834 E0.015
G1 X107.732 Y100.575 E0.016
G1 X107.33 Y100.351 E0.015
G1 X106.911 Y100.163 E0.015
G1 X106.475 Y100.013 E0.016
;rapid-leaky
G0 X106.576 Y99.667 F7200
;bead-perimeter_inner
G1 X106.099 Y99.549 F960 E0.016
G1 X105.614 Y99.474 E0.016
G1 X105.124 Y99.441 E0.017
G1 X104.631 Y99.452 E0.016
G1 X104.143 Y99.506 E0.016
G1 X103.66 Y99.603 E0.017
G1 X103.188 Y99.743 E0.016
G1 X102.732 Y99.923 E0.016
G1 X102.291 Y100.144 E0.017
G1 X101.872 Y100.403 E0.016
G1 X101.478 Y100.697 E0.017
G1 X101.112 Y101.026 E0.016
G1 X100.776 Y101.384 E0.016
G1 X100.473 Y101.771 E0.017
G1 X100.204 Y102.184 E0.016
G1 X99.975 Y102.619 E0.016
G1 X99.784 Y103.073 E0.017
G1 X99.631 Y103.555 E0.017
G1 X99.524 Y104.035 E0.016
G1 X99.462 Y104.509 E0.016
G1 X99.439 Y105 E0.016
G1 X99.462 Y105.492 E0.017
G1 X99.526 Y105.978 E0.016
G1 X99.634 Y106.459 E0.016
G1 X99.784 Y106.928 E0.017
G1 X99.976 Y107.381 E0.016
G1 X100.212 Y107.827 E0.017
G1 X100.473 Y108.229 E0.016
G1 X100.776 Y108.616 E0.016
G1 X101.112 Y108.974 E0.016
G1 X101.478 Y109.303 E0.017
G1 X101.872 Y109.597 E0.016
G1 X102.291 Y109.856 E0.017
G1 X102.732 Y110.077 E0.016
G1 X103.189 Y110.257 E0.016
G1 X103.674 Y110.4 E0.017
G1 X104.143 Y110.494 E0.016
G1 X104.631 Y110.548 E0.016
G1 X105.124 Y110.559 E0.017
G1 X105.614 Y110.526 E0.016
G1 X106.099 Y110.451 E0.016
G1 X106.576 Y110.333 E0.017
G1 X107.043 Y110.172 E0.016
G1 X107.504 Y109.965 E0.017
G1 X107.922 Y109.731 E0.016
G1 X108.327 Y109.455 E0.016
G1 X108.709 Y109.144 E0.017
G1 X109.061 Y108.798 E0.016
G1 X109.389 Y108.414 E0.017
G1 X109.665 Y108.025 E0.016
G1 X109.914 Y107.602 E0.016
G1 X110.126 Y107.156 E0.016
G1 X110.296 Y106.695 E0.017
G1 X110.425 Y106.22 E0.016
G1 X110.512 Y105.736 E0.016
G1 X110.555 Y105.246 E0.017
G1 Y104.754 E0.016
G1 X110.509 Y104.25 E0.017
G1 X110.422 Y103.766 E0.016
G1 X110.296 Y103.305 E0.016
G1 X110.126 Y102.844 E0.017
G1 X109.914 Y102.398 E0.016
G1 X109.665 Y101.975 E0.016
G1 X109.381 Y101.575 E0.017
G1 X109.06 Y101.201 E0.016
G1 X108.709 Y100.856 E0.016
G1 X108.327 Y100.545 E0.017
G1 X107.921 Y100.268 E0.016
G1 X107.491 Y100.029 E0.017
G1 X107.043 Y99.828 E0.016
G1 X106.576 Y99.667 E0.016
G1 F2100 E-0.5
;rapid-dry
G0 X101.439 Y100.327 F7200
G1 F2100 E0.5
;bead-solid_infill
G1 X111.931 Y89.835 F720 E0.494
G1 X112.307 Y90.025 E0.014
G1 X102.766 Y99.566 E0.449
G1 X103.084 Y99.44 E0.011
G1 X103.481 Y99.322 E0.014
G1 X103.583 Y99.292 E0.003
G1 X103.615 Y99.283 E0.001
G1 X112.682 Y90.215 E0.427
G1 X112.947 Y90.349 E0.01
G1 X113.058 Y90.405 E0.004
G1 X104.296 Y99.167 E0.412
G1 X104.609 Y99.132 E0.011
G1 X104.903 Y99.125 E0.009
G1 X113.447 Y90.581 E0.402
G1 X113.481 Y90.59 E0.001
G1 X113.592 Y90.618 E0.004
G1 X113.827 Y90.64 E0.008
G1 X113.968 Y90.627 E0.005
G1 X105.452 Y99.142 E0.4
G1 X105.65 Y99.156 E0.007
G1 X105.957 Y99.203 E0.01
G1 X117.229 Y87.931 E0.53
G1 X117.347 Y87.87 E0.005
G1 X117.477 Y87.963 E0.005
G1 X117.422 Y88.294 E0.011
G1 X117.419 Y88.306 E0.001
G1 X106.425 Y99.3 E0.517
G1 X106.667 Y99.36 E0.008
G1 X106.864 Y99.428 E0.007
G1 X117.233 Y89.058 E0.488
G1 X117.232 Y89.063
G1 X117.192 Y89.181 E0.004
G1 X117.111 Y89.424 E0.009
G1 X117.029 Y89.628 E0.007
G1 X116.976 Y89.758 E0.005
G1 X116.855 Y90.002 E0.009
G1 X107.276 Y99.581 E0.45
G1 X107.386 Y99.631 E0.004
G1 X107.635 Y99.743 E0.009
G1 X107.664 Y99.759 E0.001
G1 X115.883 Y91.54 E0.387
G1 X115.864 Y91.7 E0.005
G1 X115.878 Y91.936 E0.008
G1 X115.91 Y92.078 E0.005
G1 X108.028 Y99.961 E0.371
G1 X108.09 Y99.995 E0.002
G1 X108.369 Y100.186 E0.011
G1 X116.08 Y92.474 E0.363
G1 X116.162 Y92.602 E0.005
G1 X116.341 Y92.779 E0.009
G1 X108.691 Y100.429 E0.359
G1 X108.923 Y100.618 E0.01
G1 X108.996 Y100.69 E0.004
G1 X116.626 Y93.06 E0.359
G1 X116.911 Y93.34 E0.013
G1 X109.281 Y100.97 E0.359
G1 X109.294 Y100.982
G1 X109.544 Y101.273 E0.013
G1 X117.188 Y93.629 E0.36
G1 X117.279 Y93.726 E0.004
G1 X117.42 Y93.852 E0.006
G1 X117.487 Y93.895 E0.003
G1 X109.788 Y101.595 E0.362
G1 X109.934 Y101.801 E0.009
G1 X110.013 Y101.935 E0.005
G1 X117.87 Y94.078 E0.369
G1 X118.066 Y94.122 E0.007
G1 X118.3 Y94.136 E0.008
G1 X118.388 Y94.126 E0.003
G1 X110.219 Y102.295 E0.384
G1 X110.308 Y102.482 E0.007
G1 X110.401 Y102.678 E0.007
G1 X119.854 Y93.226 E0.445
G1 X119.938 Y93.179 E0.003
G1 X120.076 Y93.101 E0.005
G1 X120.578 Y92.888 E0.018
G1 X120.847 Y92.798 E0.01
G1 X110.557 Y103.088 E0.484
G1 X110.601 Y103.207 E0.004
G1 X110.687 Y103.524 E0.011
G1 X121.612 Y92.599 E0.514
G1 X121.706 Y92.578 E0.003
G1 X122.036 Y92.524 E0.011
G1 X122.128 Y92.649 E0.005
G1 X110.787 Y103.989 E0.534
G1 X110.827 Y104.207 E0.007
G1 X110.852 Y104.49 E0.01
G1 X119.38 Y95.963 E0.401
G1 X119.36 Y96.174 E0.007
G1 X119.382 Y96.408 E0.008
G1 X119.406 Y96.502 E0.003
G1 X110.875 Y105.033 E0.401
G1 Y105.26 E0.008
G1 X110.842 Y105.632 E0.012
G1 X119.574 Y96.9 E0.411
G1 X119.764 Y97.276 E0.014
G1 X110.733 Y106.306 E0.424
G1 X110.601 Y106.792 E0.017
G1 X110.477 Y107.128 E0.012
G1 X119.954 Y97.651 E0.446
G1 X120.144 Y98.027 E0.014
G1 X109.842 Y108.329 E0.484
G1 F2100 E-0.5
;rapid-dry
G0 X119.943 Y112.37 F7200
G1 F2100 E0.5
;bead-solid_infill
G1 X112.37 Y119.943 F720 E0.357
G1 X113.363 Y119.44 E0.037
G1 X113.464 Y119.415 E0.003
G1 X119.415 Y113.464 E0.28
G1 X119.382 Y113.592 E0.004
G1 X119.36 Y113.827 E0.008
G1 X119.382 Y114.062 E0.008
G1 X114.062 Y119.382 E0.25
G1 X115.488 Y120.785 E0.067
G1 X116.626 Y119.647 E0.053
G1 X116.4 Y119.388 E0.012
G1 X116.363 Y119.344 E0.002
G1 X115.257 Y120.45 E0.052
G1 X115.045 Y120.096 E0.014
G1 X116.107 Y119.035 E0.049
G1 X116.065 Y118.978 E0.003
G1 X115.958 Y118.764 E0.008
G1 X115.925 Y118.65 E0.004
G1 X114.803 Y119.773 E0.052
G1 X114.703 Y119.674 E0.005
G1 X114.62 Y119.618 E0.003
G1 X114.507 Y119.542 E0.005
G1 X114.48 Y119.53 E0.001
G1 X115.874 Y118.136 E0.066
G1 X115.878 Y118.064 E0.002
G1 X115.918 Y117.889 E0.006
G1 X115.93 Y117.837 E0.002
G1 X116.016 Y117.63 E0.007
G1 X116.158 Y117.402 E0.009
G1 X116.622 Y116.944 E0.022
G1 X116.944 Y116.627 E0.015
G1 X117.279 Y116.274 E0.016
G1 X117.42 Y116.148 E0.006
G1 X117.495 Y116.1 E0.003
G1 X117.617 Y116.021 E0.005
G1 X117.727 Y115.976 E0.004
G1 X117.836 Y115.93 E0.004
G1 X118.064 Y115.878 E0.008
G1 X118.136 Y115.874 E0.002
G1 X119.53 Y114.48 E0.066
G1 X119.543 Y114.509 E0.001
G1 X119.674 Y114.703 E0.007
G1 X119.773 Y114.803 E0.005
G1 X118.65 Y115.925 E0.053
G1 X118.764 Y115.958 E0.004
G1 X118.978 Y116.065 E0.008
G1 X119.035 Y116.107 E0.002
G1 X120.096 Y115.045 E0.05
G1 X120.45 Y115.257 E0.014
G1 X119.344 Y116.363 E0.052
G1 X119.647 Y116.626 E0.013
G1 X120.785 Y115.488 E0.054
G1 X121.072 Y115.766 E0.013
G1 X119.989 Y116.85 E0.051
G1 X120.075 Y116.898 E0.003
G1 X120.377 Y117.027 E0.011
G1 X121.332 Y116.072 E0.045
G1 X121.558 Y116.377 E0.013
G1 X121.571 Y116.398 E0.001
G1 X120.788 Y117.182 E0.036
G1 X120.937 Y117.232 E0.006
G1 X121.225 Y117.311 E0.01
G1 X121.794 Y116.741 E0.026
G1 X121.977 Y117.05 E0.012
G1 X122.002 Y117.099 E0.002
G1 X121.684 Y117.417 E0.015
G1 F2100 E-0.5
;rapid-dry
G0 X116.85 Y119.988 F7200
G1 F2100 E0.5
;bead-solid_infill
G1 X115.766 Y121.072 F720 E0.051
G1 X115.787 Y121.093 E0.001
G1 X116.071 Y121.332 E0.012
G1 X116.072
G1 X117.03 Y120.375 E0.045
G1 X117.111 Y120.576 E0.008
G1 X117.182 Y120.788 E0.007
G1 X116.398 Y121.571 E0.037
G1 X116.519 Y121.651 E0.005
G1 X116.716 Y121.78 E0.008
G1 X116.741 Y121.794 E0.001
G1 X117.311 Y121.225 E0.026
G1 X117.336 Y121.316 E0.004
G1 X117.417 Y121.684 E0.012
G1 X117.099 Y122.002 E0.015
G1 F2100 E-0.5
;rapid-dry
G0 X111.308 Y124.964 F7200
G1 F2100 E0.5
;bead-solid_infill
G1 X111.662 Y124.61 F720 E0.017
G1 X111.691 Y124.316 E0.01
G1 X111.705 Y124.002 E0.01
G1 X111.038 Y124.669 E0.031
G1 X110.948 Y124.569 E0.005
G1 X110.781 Y124.36 E0.009
G1 X111.697 Y123.444 E0.043
G1 X111.679 Y123.189 E0.008
G1 X111.676 Y123.17 E0.001
G1 X111.636 Y122.94 E0.008
G1 X110.54 Y124.035 E0.051
G1 X110.482 Y123.954 E0.004
G1 X110.408 Y123.835 E0.004
G1 X110.319 Y123.691 E0.006
G1 X111.518 Y122.492 E0.056
G1 X111.349 Y122.096 E0.015
G1 X110.123 Y123.321 E0.057
G1 X110.03 Y123.078 E0.009
G1 X109.987 Y122.891 E0.006
G1 X111.2 Y121.679 E0.057
G1 X111.175 Y121.518 E0.006
G1 X111.169 Y121.48 E0.001
G1 X111.175 Y121.244 E0.008
G1 X111.197 Y121.132 E0.004
G1 X111.201 Y121.112
G1 X109.882 Y122.431 E0.062
G1 F2100 E-0.5
;rapid-dry
G0 X124.964 Y111.309 F7200
G1 F2100 E0.5
;bead-solid_infill
G1 X124.61 Y111.663 F720 E0.017
G1 X124.341 Y111.689 E0.009
G1 X124.002 Y111.705 E0.011
G1 X124.669 Y111.038 E0.032
G1 X124.569 Y110.948 E0.004
G1 X124.36 Y110.781 E0.009
G1 X123.444 Y111.697 E0.043
G1 X123.317 Y111.688 E0.004
G1 X123.189 Y111.679 E0.005
G1 X122.94 Y111.636 E0.008
G1 X124.035 Y110.54 E0.052
G1 X123.956 Y110.484 E0.003
G1 X123.687 Y110.323 E0.01
G1 X122.492 Y111.518 E0.056
G1 X122.229 Y111.406 E0.01
G1 X122.096 Y111.349 E0.005
G1 X123.319 Y110.125 E0.057
G1 X123.195 Y110.068 E0.005
G1 X123.075 Y110.029 E0.004
G1 X122.892 Y109.987 E0.006
G1 X121.679 Y111.199 E0.057
G1 X121.466 Y111.169 E0.007
G1 X121.239 Y111.175 E0.008
G1 X121.112 Y111.201 E0.004
G1 X122.431 Y109.882 E0.062
G1 X122.356 Y109.864 E0.003
G1 X122.166 Y109.803 E0.007
G1 X122.02 Y109.727 E0.005
G1 X109.727 Y122.02 E0.578
G1 X109.693 Y121.956 E0.003
G1 X109.552 Y121.771 E0.007
G1 X109.479 Y121.703 E0.004
G1 X121.703 Y109.479 E0.575
G1 X121.608 Y109.377 E0.004
G1 X121.48 Y109.177 E0.008
G1 X121.468 Y109.148 E0.001
G1 X109.148 Y121.468 E0.58
G1 X108.963 Y121.388 E0.007
G1 X108.731 Y121.332 E0.008
G1 X108.719 Y121.331
G1 X121.331 Y108.719 E0.593
G1 X121.317 Y108.467 E0.009
G1 X121.377 Y108.108 E0.012
G1 X108.108 Y121.377 E0.624
G1 X107.428 Y121.491 E0.023
G1 X121.49 Y107.428 E0.661
G1 X121.497 Y107.386 E0.002
G1 X121.56 Y106.907 E0.016
G1 X121.591 Y106.762 E0.005
G1 X106.762 Y121.591 E0.697
;rapid-leaky
G0 X122.576 Y105.777 F7200
;bead-solid_infill
G1 X124.119 Y104.234 F720 E0.073
G1 X124.363 Y104.269 E0.008
G1 X124.593 Y104.326 E0.008
G1 X123.16 Y105.759 E0.067
G1 X123.687 Y105.798 E0.018
G1 X125.029 Y104.455 E0.063
G1 X125.083 Y104.472 E0.002
G1 X125.438 Y104.606 E0.012
G1 X125.443 Y104.608 E0.001
G1 X124.311 Y105.739 E0.053
G1 X124.363 Y105.732 E0.001
G1 X124.72 Y105.643 E0.013
G1 X125.083 Y105.528 E0.012
G1 X125.091 Y105.525 E0.001
G1 X125.836 Y104.78 E0.035
G1 X126.116 Y104.921 E0.01
G1 X126.115 Y105.066 E0.005
G1 X126.087 Y105.094 E0.001
G1 F2100 E-0.5
;rapid-dry
G0 X121.374 Y101.888 F7200
G1 F2100 E0.5
;bead-solid_infill
G1 X101.888 Y121.374 F720 E0.917
G1 X102.266 Y121.435 E0.013
G1 X102.375 Y121.453 E0.003
G1 X121.453 Y102.375 E0.898
G1 X121.531 Y102.862 E0.016
G1 X102.862 Y121.531 E0.878
G1 X103.274 Y121.597 E0.014
G1 X103.337 Y121.622 E0.002
G1 X121.622 Y103.337 E0.86
G1 X121.684 Y103.495 E0.006
G1 X121.808 Y103.703 E0.008
G1 X121.814 Y103.711
G1 X103.711 Y121.814 E0.852
G1 X103.882 Y121.967 E0.008
G1 X103.991 Y122.1 E0.005
G1 X122.1 Y103.991 E0.852
G1 X122.15 Y104.031 E0.002
G1 X122.369 Y104.152 E0.009
G1 X122.47 Y104.186 E0.003
G1 X104.186 Y122.47 E0.86
G1 X104.223 Y122.576 E0.004
G1 X104.267 Y122.822 E0.008
G1 X104.256 Y122.966 E0.005
G1 X122.966 Y104.256 E0.88
G1 X123.577 Y104.21 E0.02
G1 X104.21 Y123.577 E0.911
G1 X104.197 Y123.752 E0.006
G1 X104.198 Y123.866 E0.004
G1 X104.234 Y124.119 E0.008
G1 X105.777 Y122.576 E0.073
G1 X105.776 Y122.579
G1 X105.733 Y122.822 E0.008
G1 X105.739 Y122.904 E0.003
G1 X105.759 Y123.16 E0.009
G1 X104.326 Y124.593 E0.067
G1 X104.34 Y124.649 E0.002
G1 X104.357 Y124.72 E0.002
G1 X104.387 Y124.813 E0.004
G1 X104.455 Y125.029 E0.007
G1 X105.798 Y123.687 E0.063
G1 X105.803 Y123.752 E0.003
G1 X105.802 Y123.866 E0.003
G1 X105.739 Y124.311 E0.015
G1 X104.608 Y125.442 E0.053
G1 X104.611 Y125.45 E0.001
G1 X104.659 Y125.561 E0.004
G1 X104.77 Y125.817 E0.009
G1 X104.78 Y125.836 E0.001
G1 X105.525 Y125.091 E0.035
G1 X105.391 Y125.446 E0.012
G1 X105.095 Y126.086 E0.024
G1 X105.065 Y126.116 E0.001
G1 F2100 E-0.5
;rapid-dry
G0 X99.8 Y123.462 F7200
G1 F2100 E0.5
;bead-solid_infill
G1 X98.373 Y124.889 F720 E0.067
G1 X98.349 Y124.727 E0.006
G1 X98.315 Y124.381 E0.011
G1 X100.075 Y122.621 E0.083
G1 X100.136 Y122.356 E0.009
G1 X100.197 Y122.166 E0.007
G1 X100.307 Y121.956 E0.008
G1 X100.448 Y121.771 E0.008
G1 X100.623 Y121.608 E0.007
G1 X100.719 Y121.547 E0.004
G1 X100.823 Y121.48 E0.004
G1 X100.914 Y121.441 E0.004
G1 X101.037 Y121.388 E0.004
G1 X101.269 Y121.332 E0.008
G1 X101.37 Y121.326 E0.003
G1 X121.326 Y101.37 E0.939
G1 F2100 E-0.5
;rapid-dry
G0 X124.889 Y98.373 F7200
G1 F2100 E0.5
;bead-solid_infill
G1 X123.461 Y99.801 F720 E0.067
G1 X123.195 Y99.932 E0.01
G1 X123.085 Y99.969 E0.004
G1 X122.621 Y100.075 E0.016
G1 X124.381 Y98.315 E0.083
G1 X124.328 Y98.31 E0.001
G1 X123.937 Y98.292 E0.013
G1 X123.838 Y98.293 E0.004
G1 X98.293 Y123.838 E1.201
G1 X98.295 Y123.558 E0.01
G1 X98.322 Y123.243 E0.01
G1 X123.242 Y98.323 E1.172
G1 X123.016 Y98.342 E0.008
G1 X122.699 Y98.405 E0.011
G1 X122.59 Y98.44 E0.003
G1 X122.536 Y98.464 E0.002
G1 X98.464 Y122.536 E1.133
G1 X98.68 Y122.028 E0.018
G1 X98.737 Y121.894 E0.005
G1 X98.797 Y121.704 E0.006
G1 X98.808 Y121.625 E0.003
G1 X121.625 Y98.809 E1.073
G1 X121.481 Y98.831 E0.005
G1 X121.241 Y98.825 E0.008
G1 X121.076 Y98.792 E0.006
G1 X98.792 Y121.076 E1.048
G1 X98.778 Y121.007 E0.002
G1 X98.692 Y120.786 E0.008
G1 X98.626 Y120.676 E0.004
G1 X120.676 Y98.626 E1.038
G1 X120.588 Y98.574 E0.003
G1 X120.408 Y98.418 E0.008
G1 X120.367 Y98.37 E0.002
G1 X98.37 Y120.367 E1.035
G1 X98.218 Y120.241 E0.006
G1 X98.027 Y120.144 E0.007
G1 X108.332 Y109.839 E0.485
G1 X108.09 Y110.003 E0.01
G1 X107.649 Y110.251 E0.017
G1 X107.161 Y110.47 E0.017
G1 X107.121 Y110.484 E0.002
G1 X97.651 Y119.954 E0.445
G1 X97.276 Y119.764 E0.014
G1 X106.312 Y110.728 E0.425
G1 X106.163 Y110.765 E0.005
G1 X105.65 Y110.844 E0.018
G1 X105.628 Y110.846
G1 X96.9 Y119.574 E0.411
G1 X96.637 Y119.44 E0.01
G1 X96.502 Y119.406 E0.004
G1 X105.031 Y110.877 E0.402
G1 X104.752 Y110.871 E0.009
G1 Y110.884
G1 X104.609 Y110.868 E0.005
G1 X104.516 Y110.858 E0.003
G1 X104.488 Y110.854 E0.001
G1 X95.962 Y119.38 E0.401
G1 X95.928 Y119.383 E0.001
G1 X95.69 Y119.449 E0.008
G1 X95.491 Y119.543 E0.008
G1 X95.412 Y119.597 E0.003
G1 X95.297 Y119.674 E0.005
G1 X95.215 Y119.755 E0.003
G1 X95.126 Y119.843 E0.005
G1 X95.011 Y120.002 E0.006
G1 X94.631 Y120.638 E0.025
G1 X94.451 Y120.859 E0.009
G1 X94.218 Y121.089 E0.011
G1 X93.929 Y121.331 E0.013
G1 X93.623 Y121.558 E0.012
G1 X93.294 Y121.773 E0.013
G1 X93.186 Y121.837 E0.005
G1 X92.95 Y121.977 E0.009
G1 X92.746 Y122.082 E0.007
G1 X92.652 Y122.13 E0.004
G1 X92.649 Y122.128
G1 X103.987 Y110.789 E0.533
G1 X103.597 Y110.711 E0.014
G1 X103.522 Y110.689 E0.002
G1 X92.599 Y121.612 E0.514
G1 X92.662 Y121.328 E0.01
G1 X92.682 Y121.255 E0.002
G1 X92.768 Y120.937 E0.011
G1 X92.798 Y120.847 E0.003
G1 X103.085 Y110.56 E0.484
G1 X102.679 Y110.4 E0.015
G1 X93.226 Y119.854 E0.444
G1 X93.256 Y119.8 E0.002
G1 X93.327 Y119.7 E0.004
G1 X93.334 Y119.692 E0.001
G1 X93.82 Y119.135 E0.024
G1 X93.86 Y119.08 E0.003
G1 X93.935 Y118.978 E0.004
G1 X94.042 Y118.764 E0.008
G1 X94.108 Y118.534 E0.008
G1 X94.126 Y118.388 E0.005
G1 X102.297 Y110.217 E0.384
G1 X102.135 Y110.136 E0.006
G1 X101.935 Y110.013 E0.008
G1 X94.078 Y117.87 E0.369
G1 X94.07 Y117.836 E0.002
G1 X94.024 Y117.727 E0.003
G1 X93.979 Y117.617 E0.004
G1 X93.895 Y117.487 E0.006
G1 X101.594 Y109.789 E0.362
G1 X101.275 Y109.551 E0.013
G1 X101.27 Y109.546
G1 X93.629 Y117.188 E0.36
G1 X93.373 Y116.944 E0.011
G1 X93.34 Y116.911 E0.002
G1 X100.972 Y109.279 E0.359
G1 X100.888 Y109.203 E0.004
G1 X100.692 Y108.994 E0.009
G1 X93.059 Y116.626 E0.359
G1 X92.779 Y116.341 E0.013
G1 X100.429 Y108.691 E0.36
G1 X100.213 Y108.415 E0.012
G1 X100.183 Y108.371 E0.002
G1 X92.474 Y116.08 E0.362
G1 X92.383 Y116.021 E0.004
G1 X92.164 Y115.93 E0.008
G1 X92.078 Y115.91 E0.003
G1 X99.961 Y108.028 E0.371
G1 X99.936 Y107.99 E0.001
G1 X99.762 Y107.661 E0.012
G1 X91.54 Y115.883 E0.387
G1 X91.466 Y115.891 E0.003
G1 X91.236 Y115.958 E0.008
G1 X91.022 Y116.065 E0.008
G1 X90.865 Y116.18 E0.006
G1 X90.305 Y116.668 E0.025
G1 X90.241 Y116.71 E0.002
G1 X90.066 Y116.823 E0.007
G1 X90.001 Y116.856 E0.003
G1 X99.583 Y107.274 E0.45
G1 X99.484 Y107.039 E0.009
G1 X99.428 Y106.864 E0.006
G1 X89.058 Y117.233 E0.488
G1 X88.684 Y117.336 E0.013
G1 X88.306 Y117.419 E0.012
G1 X99.299 Y106.427 E0.517
G1 X99.211 Y106.034 E0.014
G1 X99.201 Y105.959 E0.002
G1 X87.931 Y117.229 E0.53
G1 X88.023 Y117.05 E0.007
G1 X88.22 Y116.716 E0.013
G1 X88.443 Y116.376 E0.014
G1 X88.661 Y116.08 E0.012
G1 X88.757 Y115.966 E0.005
G1 X88.903 Y115.792 E0.007
G1 X89.146 Y115.544 E0.012
G1 X89.362 Y115.369 E0.009
G1 X89.998 Y114.989 E0.025
G1 X90.042 Y114.958 E0.002
G1 X90.157 Y114.874 E0.004
G1 X90.326 Y114.703 E0.008
G1 X90.364 Y114.647 E0.003
G1 X90.458 Y114.507 E0.005
G1 X90.559 Y114.292 E0.008
G1 X90.619 Y114.052 E0.008
G1 X90.627 Y113.967 E0.003
G1 X99.14 Y105.455 E0.401
G1 X99.119 Y105 E0.015
G1 X99.123 Y104.905 E0.003
G1 X90.581 Y113.447 E0.402
G1 X90.56 Y113.363 E0.003
G1 X90.405 Y113.058 E0.011
G1 X99.167 Y104.296 E0.412
G1 X99.209 Y103.98 E0.011
G1 X99.292 Y103.605 E0.012
G1 X90.215 Y112.682 E0.427
G1 X90.025 Y112.307 E0.014
G1 X99.567 Y102.765 E0.449
G1 X99.686 Y102.482 E0.01
G1 X99.928 Y102.022 E0.018
G1 X100.212 Y101.585 E0.017
G1 X100.326 Y101.44 E0.006
G1 X89.835 Y111.931 E0.494
G1 X89.759 Y111.782 E0.005
G1 X89.604 Y111.596 E0.008
G1 X111.596 Y89.604 E1.035
G1 X111.582 Y89.592
G1 X111.43 Y89.416 E0.008
G1 X111.35 Y89.284 E0.005
G1 X89.284 Y111.351 E1.038
G1 X89.201 Y111.302 E0.003
G1 X88.992 Y111.222 E0.008
G1 X88.942 Y111.212 E0.001
G1 X88.871 Y111.198 E0.003
G1 X111.198 Y88.871 E1.05
G1 X111.175 Y88.761 E0.004
G1 X111.169 Y88.534 E0.007
G1 X111.202 Y88.301 E0.008
G1 X88.3 Y111.203 E1.077
G1 X88.291 Y111.204 E0.001
G1 X88.17 Y111.243 E0.004
G1 X88.106 Y111.263 E0.002
G1 X87.41 Y111.56 E0.025
G1 X87.384 Y111.568 E0.001
G1 X87.363 Y111.575 E0.001
G1 X111.575 Y87.363 E1.139
G1 X111.593 Y87.305 E0.002
G1 X111.669 Y86.868 E0.015
G1 X111.679 Y86.811 E0.001
G1 X111.688 Y86.683 E0.005
G1 X86.688 Y111.684 E1.176
;rapid-leaky
G0 X111.708 Y86.098 F7200
;bead-solid_infill
G1 X86.098 Y111.708 F720 E1.204
G1 X86.063 E0.001
G1 X86.025 Y111.706 E0.002
G1 X85.672 Y111.69 E0.011
G1 X85.561 Y111.679 E0.004
G1 X87.296 Y109.944 E0.082
G1 X86.915 Y110.032 E0.013
G1 X86.805 Y110.068 E0.004
G1 X86.414 Y110.261 E0.014
G1 X85.056 Y111.618 E0.064
G1 F2100 E-0.5
;rapid-dry
G0 X84.122 Y105.199 F7200
G1 F2100 E0.5
;bead-solid_infill
G1 X84.807 Y104.513 F720 E0.032
G1 X84.917 Y104.472 E0.004
G1 X85.28 Y104.357 E0.013
G1 X85.612 Y104.275 E0.011
G1 X84.513 Y105.373 E0.052
G1 X84.55 Y105.389 E0.001
G1 X84.917 Y105.528 E0.013
G1 X84.922 Y105.53
G1 X86.254 Y104.198 E0.063
G1 X86.781 Y104.237 E0.018
G1 X85.356 Y105.662 E0.067
G1 X85.637 Y105.731 E0.009
G1 X85.825 Y105.758 E0.007
G1 X87.347 Y104.237 E0.071
G1 X87.424 Y104.223 E0.003
G1 X87.644 Y104.146 E0.007
G1 X87.853 Y104.029 E0.008
G1 X88.033 Y103.882 E0.008
G1 X88.195 Y103.7 E0.008
G1 X88.321 Y103.483 E0.009
G1 X88.374 Y103.348 E0.004
G1 X88.4 Y103.281 E0.003
G1 X88.409 Y103.237 E0.001
G1 X88.426 Y103.157 E0.003
G1 X103.157 Y88.426 E0.693
G1 X103.093 Y88.44 E0.002
G1 X102.607 Y88.504 E0.016
G1 X102.496 Y88.522 E0.004
G1 X88.522 Y102.496 E0.657
G1 X88.636 Y101.816 E0.023
G1 X101.816 Y88.636 E0.62
G1 X101.533 Y88.683 E0.01
G1 X101.269 Y88.668 E0.009
G1 X101.228 Y88.658 E0.001
G1 X88.658 Y101.228 E0.591
G1 X88.612 Y101.037 E0.007
G1 X88.52 Y100.823 E0.008
G1 X88.511 Y100.81
G1 X100.81 Y88.511 E0.579
G1 X100.709 Y88.447 E0.004
G1 X100.623 Y88.392 E0.003
G1 X100.489 Y88.266 E0.006
G1 X88.266 Y100.489 E0.575
G1 X88.229 Y100.448 E0.002
G1 X88.044 Y100.307 E0.008
G1 X87.938 Y100.251 E0.004
G1 X100.251 Y87.938 E0.579
;rapid-leaky
G0 X88.809 Y98.815 F7200
;bead-solid_infill
G1 X87.517 Y100.107 F720 E0.06
G1 X87.057 Y100.001 E0.016
G1 X88.269 Y98.789 E0.057
G1 X88.106 Y98.737 E0.006
G1 X87.86 Y98.632 E0.009
G1 X86.638 Y99.855 E0.057
G1 X86.512 Y99.797 E0.005
G1 X86.353 Y99.701 E0.006
G1 X86.273 Y99.653 E0.003
G1 X87.464 Y98.463 E0.056
G1 X87.41 Y98.44 E0.002
G1 X87.305 Y98.407 E0.004
G1 X87.006 Y98.355 E0.01
G1 X85.928 Y99.433 E0.051
G1 X85.737 Y99.296 E0.007
G1 X85.605 Y99.19 E0.006
G1 X86.497 Y98.299 E0.042
G1 X86.444 Y98.295 E0.002
G1 X86.063 Y98.292 E0.012
G1 X85.931 Y98.298 E0.005
G1 X85.297 Y98.933 E0.03
G1 X85.132 Y98.786 E0.007
G1 X85.004 Y98.66 E0.006
G1 X85.32 Y98.344 E0.015
G1 F2100 E-0.5
;rapid-dry
G0 X87.976 Y92.859 F7200
G1 F2100 E0.5
;bead-solid_infill
G1 X88.263 Y92.573 F720 E0.013
G1 X88.294 Y92.578 E0.001
G1 X88.672 Y92.662 E0.013
G1 X88.725 Y92.676 E0.002
G1 X88.182 Y93.219 E0.026
G1 X88.227 Y93.294 E0.002
G1 X88.403 Y93.563 E0.011
G1 X89.165 Y92.802 E0.036
G1 X89.422 Y92.888 E0.009
G1 X89.578 Y92.954 E0.006
G1 X88.641 Y93.892 E0.044
G1 X88.669 Y93.929 E0.001
G1 X88.897 Y94.201 E0.012
G1 X89.971 Y93.128 E0.051
G1 X90.199 Y93.256 E0.008
G1 X90.3 Y93.327 E0.004
G1 X90.32 Y93.344 E0.001
G1 X89.18 Y94.484 E0.054
G1 X89.362 Y94.631 E0.008
G1 X89.51 Y94.719 E0.005
G1 X90.622 Y93.608 E0.053
G1 X90.865 Y93.82 E0.01
G1 X90.929 Y93.867 E0.003
G1 X89.864 Y94.931 E0.05
G1 X89.998 Y95.011 E0.005
G1 X90.074 Y95.066 E0.003
G1 X90.11 Y95.092 E0.002
G1 X90.123
G1 X90.196 Y95.165 E0.004
G1 X91.3 Y94.061 E0.052
G1 X91.466 Y94.108 E0.005
G1 X91.7 Y94.136 E0.008
G1 X91.796 Y94.13 E0.003
G1 X90.448 Y95.478 E0.064
G1 X90.457 Y95.491
G1 X90.551 Y95.69 E0.008
G1 X90.605 Y95.887 E0.006
G1 X95.888 Y90.604 E0.249
G1 X95.708 Y90.559 E0.006
G1 X95.493 Y90.458 E0.008
G1 X95.478 Y90.448 E0.001
G1 X94.13 Y91.796 E0.063
G1 X94.136 Y91.7 E0.003
G1 X94.108 Y91.466 E0.008
G1 X94.061 Y91.3 E0.006
G1 X95.165 Y90.196 E0.052
G1 X95.126 Y90.157 E0.002
G1 X95.011 Y89.998 E0.006
G1 X94.931 Y89.864 E0.005
G1 X93.867 Y90.929 E0.05
G1 X93.82 Y90.865 E0.003
G1 X93.608 Y90.622 E0.011
G1 X94.719 Y89.51 E0.052
G1 X94.627 Y89.356 E0.006
G1 X94.557 Y89.261 E0.004
G1 X94.481 Y89.183 E0.004
G1 X93.344 Y90.319 E0.053
G1 X93.332 Y90.305 E0.001
G1 X93.294 Y90.247 E0.002
G1 X93.177 Y90.066 E0.007
G1 X93.129 Y89.97 E0.004
G1 X94.201 Y88.897 E0.05
G1 X93.92 Y88.661 E0.012
G1 X93.892 Y88.641 E0.002
G1 X92.952 Y89.58 E0.044
G1 X92.889 Y89.424 E0.005
G1 X92.802 Y89.165 E0.009
G1 X93.563 Y88.403 E0.036
G1 X93.284 Y88.22 E0.011
G1 X93.219 Y88.182 E0.003
G1 X92.676 Y88.725 E0.025
G1 X92.664 Y88.684 E0.002
G1 X92.624 Y88.502 E0.006
G1 X92.578 Y88.294 E0.007
G1 X92.573 Y88.263 E0.001
G1 X92.859 Y87.976 E0.014
G1 F2100 E-0.5
;rapid-dry
G0 X105.199 Y84.122 F7200
G1 F2100 E0.5
;bead-solid_infill
G1 X104.513 Y84.807 F720 E0.032
G1 X104.472 Y84.917 E0.004
G1 X104.357 Y85.28 E0.012
G1 X104.275 Y85.612 E0.012
G1 X105.373 Y84.513 E0.051
G1 X105.389 Y84.55 E0.002
G1 X105.528 Y84.917 E0.013
G1 X105.53 Y84.922
G1 X104.198 Y86.254 E0.063
G1 X105.662 Y85.356 E0.057
G1 X104.237 Y86.781 E0.067
G1 X104.26 Y87.082 E0.01
G1 X104.267 Y87.178 E0.003
G1 X104.237 Y87.347 E0.006
G1 X105.758 Y85.825 E0.071
G1 X105.802 Y86.134 E0.011
G1 X105.803 Y86.248 E0.004
G1 X105.795 Y86.354 E0.003
G1 X86.354 Y105.795 E0.914
G1 X86.966 Y105.749 E0.021
G1 X105.749 Y86.966 E0.883
G1 X105.74 Y87.089 E0.005
G1 X105.733 Y87.178 E0.002
G1 X105.777 Y87.424 E0.009
G1 X105.797 Y87.483 E0.002
G1 X87.483 Y105.797 E0.861
G1 X87.644 Y105.854 E0.006
G1 X87.841 Y105.964 E0.007
G1 X87.864 Y105.982 E0.001
G1 X105.981 Y87.865 E0.853
G1 X106.118 Y88.033 E0.007
G1 X106.256 Y88.156 E0.006
G1 X88.156 Y106.256 E0.851
G1 X88.192 Y106.297 E0.002
G1 X88.316 Y106.505 E0.008
G1 X88.36 Y106.617 E0.004
G1 X106.617 Y88.36 E0.859
G1 X106.719 Y88.4 E0.004
G1 X106.907 Y88.44 E0.006
G1 X107.081 Y88.463 E0.006
G1 X88.46 Y107.083 E0.876
G1 X88.539 Y107.57 E0.016
G1 X107.575 Y88.534 E0.896
G1 X108.06 Y88.615 E0.016
G1 X88.617 Y108.058 E0.914
G1 X88.683 Y108.468 E0.014
G1 X88.678 Y108.563 E0.003
G1 X108.563 Y88.678 E0.936
G1 X108.731 Y88.668 E0.005
G1 X108.847 Y88.64 E0.004
G1 X108.963 Y88.612 E0.004
G1 X109.177 Y88.52 E0.008
G1 X109.377 Y88.392 E0.008
G1 X109.552 Y88.229 E0.008
G1 X109.693 Y88.044 E0.008
G1 X109.803 Y87.834 E0.007
G1 X109.864 Y87.644 E0.007
G1 X109.944 Y87.297 E0.012
G1 X111.679 Y85.561 E0.082
G1 X111.651 Y85.273 E0.009
G1 X111.618 Y85.056 E0.007
G1 X110.265 Y86.41 E0.064
G1 F2100 E-0.5
;rapid-dry
G0 X96.451 Y90.607 F7200
G1 F2100 E0.5
;bead-solid_infill
G1 X90.607 Y96.451 F720 E0.275
G1 X90.56 Y96.637 E0.006
G1 X90.122 Y97.502 E0.033
G1 X97.502 Y90.122 E0.347
G1 X98.218 Y89.759 E0.027
G1 X98.418 Y89.592 E0.008
G1 X98.574 Y89.412 E0.008
G1 X98.698 Y89.201 E0.008
G1 X98.757 Y89.046 E0.006
G1 X98.778 Y88.992 E0.002
G1 X98.815 Y88.809 E0.006
G1 X100.106 Y87.518 E0.061
G1 X100.001 Y87.057 E0.015
G1 X98.789 Y88.269 E0.057
G1 X98.781 Y88.244 E0.001
G1 X98.737 Y88.106 E0.005
G1 X98.632 Y87.86 E0.009
G1 X99.855 Y86.638 E0.057
G1 X99.792 Y86.502 E0.005
G1 X99.654 Y86.273 E0.009
G1 X98.463 Y87.464 E0.056
G1 X98.44 Y87.41 E0.002
G1 X98.406 Y87.305 E0.004
G1 X98.355 Y87.006 E0.01
G1 X99.433 Y85.928 E0.051
G1 X99.296 Y85.737 E0.008
G1 X99.19 Y85.605 E0.005
G1 X98.299 Y86.497 E0.042
G1 X98.295 Y86.444 E0.002
G1 X98.292 Y86.063 E0.013
G1 X98.293 Y86.052
G1 X98.298 Y85.931 E0.004
G1 X98.933 Y85.297 E0.03
G1 X98.777 Y85.122 E0.008
G1 X98.66 Y85.004 E0.005
G1 X98.344 Y85.32 E0.015
G1 F2100 E-0.5
;LAYER:2
M106 S255
M104 S250 T0
M105
M109 S250 T0
;rapid-leaky
G0 X97.674 Y85.191 Z0.35 F7200
G1 F2100 E0.5
;bead-perimeter_outer
G1 X97.797 Y84.426 F1800 E0.019
G1 X98.734 Y84.121 E0.025
G1 X98.976 Y84.351 E0.008
G1 X99.572 Y84.993 E0.022
G1 X99.839 Y85.327 E0.011
G1 X100.084 Y85.668 E0.01
G1 X100.29 Y85.999 E0.01
G1 X100.4 Y86.197 E0.006
G1 X100.565 Y86.554 E0.009
G1 X100.624 Y86.732 E0.005
G1 X100.792 Y87.464 E0.019
G1 X100.827 Y87.572 E0.003
G1 X100.892 Y87.69 E0.003
G1 X101.042 Y87.853 E0.005
G1 X101.143 Y87.917 E0.003
G1 X101.253 Y87.964 E0.003
G1 X101.37 Y87.993 E0.003
G1 X101.496 Y88 E0.004
G1 X103.086 Y87.746 E0.04
G1 X103.3 Y87.641 E0.006
G1 X103.465 Y87.469 E0.006
G1 X103.525 Y87.362 E0.003
G1 X103.584 Y87.132 E0.006
G1 X103.517 Y86.274 E0.021
G1 X103.518 Y86.088 E0.005
G1 X103.602 Y85.498 E0.015
G1 X103.703 Y85.095 E0.01
G1 X103.829 Y84.695 E0.01
G1 X103.98 Y84.294 E0.011
G1 X104.154 Y83.896 E0.011
G1 X104.508 Y83.207 E0.019
G1 X105.493 Y83.208 E0.025
G1 X105.846 Y83.896 E0.019
G1 X106.02 Y84.294 E0.011
G1 X106.171 Y84.695 E0.011
G1 X106.297 Y85.095 E0.01
G1 X106.392 Y85.474 E0.01
G1 X106.435 Y85.693 E0.005
G1 X106.482 Y86.088 E0.01
G1 X106.483 Y86.274 E0.005
G1 X106.417 Y87.021 E0.019
G1 X106.416 Y87.132 E0.002
G1 X106.437 Y87.252 E0.004
G1 X106.476 Y87.364 E0.002
G1 X106.535 Y87.469 E0.003
G1 X106.702 Y87.642 E0.006
G1 X106.821 Y87.71 E0.004
G1 X107.022 Y87.769 E0.005
G1 X107.487 Y87.83 E0.012
G1 X108.504 Y88 E0.026
G1 X108.63 Y87.993 E0.003
G1 X108.75 Y87.964 E0.003
G1 X108.958 Y87.852 E0.006
G1 X109.118 Y87.676 E0.006
G1 X109.174 Y87.57 E0.003
G1 X109.376 Y86.732 E0.021
G1 X109.434 Y86.556 E0.005
G1 X109.698 Y86.02 E0.015
G1 X109.916 Y85.668 E0.01
G1 X110.161 Y85.327 E0.01
G1 X110.428 Y84.993 E0.011
G1 X110.717 Y84.668 E0.011
G1 X111.266 Y84.121 E0.019
G1 X112.203 Y84.426 E0.025
G1 X112.326 Y85.191 E0.019
G1 X112.368 Y85.623 E0.011
G1 X112.388 Y86.05 E0.011
G1 X112.385 Y86.47 E0.01
G1 X112.356 Y86.885 E0.011
G1 X112.257 Y87.46 E0.014
G1 X112.197 Y87.648 E0.005
G1 X111.868 Y88.447 E0.022
G1 X111.851 Y88.581 E0.003
G1 X111.877 Y88.801 E0.005
G1 X111.921 Y88.913 E0.003
G1 X111.982 Y89.016 E0.003
G1 X112.06 Y89.106 E0.003
G1 X112.157 Y89.187 E0.004
G1 X113.593 Y89.917 E0.04
G1 X113.827 Y89.957 E0.006
G1 X113.949 Y89.945 E0.003
G1 X114.08 Y89.908 E0.003
G1 X114.27 Y89.797 E0.006
G1 X114.357 Y89.712 E0.003
G1 X114.421 Y89.622 E0.002
G1 X114.813 Y88.968 E0.019
G1 X114.919 Y88.827 E0.005
G1 X115.333 Y88.401 E0.015
G1 X115.65 Y88.134 E0.01
G1 X115.968 Y87.899 E0.01
G1 X116.346 Y87.65 E0.011
G1 X116.72 Y87.429 E0.011
G1 X117.11 Y87.223 E0.011
G1 X117.411 Y87.08 E0.008
G1 X118.209 Y87.657 E0.025
G1 X118.09 Y88.424 E0.019
G1 X117.996 Y88.848 E0.011
G1 X117.883 Y89.261 E0.011
G1 X117.749 Y89.66 E0.01
G1 X117.603 Y90.021 E0.01
G1 X117.509 Y90.226 E0.006
G1 X117.316 Y90.569 E0.009
G1 X117.207 Y90.722 E0.005
G1 X116.714 Y91.288 E0.019
G1 X116.594 Y91.485 E0.006
G1 X116.546 Y91.72 E0.006
G1 X116.553 Y91.839 E0.002
G1 X116.58 Y91.955 E0.003
G1 X116.626 Y92.066 E0.003
G1 X116.691 Y92.167 E0.003
G1 X117.833 Y93.309 E0.041
G1 X117.934 Y93.374 E0.003
G1 X118.045 Y93.42 E0.003
G1 X118.28 Y93.454 E0.006
G1 X118.515 Y93.406 E0.006
G1 X118.623 Y93.352 E0.003
G1 X119.278 Y92.793 E0.021
G1 X119.432 Y92.683 E0.005
G1 X119.774 Y92.491 E0.01
G1 X119.956 Y92.406 E0.005
G1 X120.34 Y92.251 E0.01
G1 X120.739 Y92.117 E0.01
G1 X121.152 Y92.004 E0.011
G1 X121.576 Y91.91 E0.011
G1 X122.341 Y91.792 E0.019
G1 X122.921 Y92.588 E0.025
G1 X122.584 Y93.257 E0.019
G1 X122.35 Y93.654 E0.011
G1 X122.116 Y94.012 E0.011
G1 X121.866 Y94.35 E0.01
G1 X121.599 Y94.667 E0.011
G1 X121.173 Y95.081 E0.014
G1 X121.022 Y95.193 E0.005
G1 X120.378 Y95.579 E0.019
G1 X120.288 Y95.643 E0.003
G1 X120.203 Y95.73 E0.003
G1 X120.085 Y95.936 E0.006
G1 X120.054 Y96.053 E0.003
G1 X120.043 Y96.173 E0.003
G1 X120.054 Y96.292 E0.003
G1 X120.129 Y96.508 E0.005
G1 X120.353 Y96.919 E0.012
G1 X120.813 Y97.843 E0.026
G1 X120.894 Y97.94 E0.003
G1 X120.986 Y98.019 E0.003
G1 X121.103 Y98.086 E0.003
G1 X121.317 Y98.147 E0.006
G1 X121.437 Y98.149 E0.003
G1 X121.555 Y98.131 E0.003
G1 X122.352 Y97.803 E0.021
G1 X122.528 Y97.746 E0.005
G1 X123.116 Y97.644 E0.015
G1 X123.53 Y97.615 E0.01
G1 X123.95 Y97.612 E0.011
G1 X124.377 Y97.632 E0.01
G1 X124.809 Y97.674 E0.011
G1 X125.574 Y97.797 E0.019
G1 X125.879 Y98.734 E0.025
G1 X125.332 Y99.283 E0.019
G1 X125.007 Y99.572 E0.011
G1 X124.673 Y99.839 E0.011
G1 X124.332 Y100.084 E0.01
G1 X124.001 Y100.29 E0.01
G1 X123.803 Y100.4 E0.006
G1 X123.446 Y100.565 E0.009
G1 X123.268 Y100.624 E0.005
G1 X122.526 Y100.795 E0.019
G1 X122.324 Y100.882 E0.006
G1 X122.147 Y101.042 E0.006
G1 X122.083 Y101.143 E0.003
G1 X122.036 Y101.253 E0.002
G1 X122.007 Y101.37 E0.003
G1 X122 Y101.496 E0.004
G1 X122.254 Y103.086 E0.04
G1 X122.359 Y103.3 E0.006
G1 X122.531 Y103.465 E0.006
G1 X122.636 Y103.524 E0.003
G1 X122.868 Y103.584 E0.006
G1 X123.726 Y103.517 E0.021
G1 X123.912 Y103.518 E0.005
G1 X124.502 Y103.602 E0.015
G1 X124.905 Y103.703 E0.01
G1 X125.305 Y103.829 E0.011
G1 X125.706 Y103.98 E0.01
G1 X126.104 Y104.154 E0.011
G1 X126.793 Y104.508 E0.019
G1 X126.792 Y105.493 E0.025
G1 X126.104 Y105.846 E0.019
G1 X125.706 Y106.02 E0.011
G1 X125.305 Y106.171 E0.011
G1 X124.905 Y106.297 E0.01
G1 X124.526 Y106.392 E0.01
G1 X124.307 Y106.435 E0.006
G1 X123.912 Y106.482 E0.009
G1 X123.726 Y106.483 E0.005
G1 X122.979 Y106.417 E0.019
G1 X122.868 Y106.416 E0.003
G1 X122.748 Y106.437 E0.003
G1 X122.636 Y106.476 E0.003
G1 X122.531 Y106.535 E0.003
G1 X122.358 Y106.702 E0.006
G1 X122.29 Y106.821 E0.003
G1 X122.231 Y107.022 E0.005
G1 X122.17 Y107.487 E0.012
G1 X122 Y108.504 E0.026
G1 X122.007 Y108.63 E0.003
G1 X122.036 Y108.75 E0.003
G1 X122.148 Y108.958 E0.006
G1 X122.324 Y109.118 E0.006
G1 X122.43 Y109.174 E0.003
G1 X123.268 Y109.376 E0.021
G1 X123.444 Y109.434 E0.005
G1 X123.98 Y109.698 E0.015
G1 X124.332 Y109.916 E0.01
G1 X124.673 Y110.161 E0.011
G1 X125.007 Y110.428 E0.01
G1 X125.332 Y110.717 E0.011
G1 X125.879 Y111.266 E0.019
G1 X125.574 Y112.203 E0.025
G1 X124.809 Y112.326 E0.019
G1 X124.377 Y112.368 E0.011
G1 X123.95 Y112.388 E0.011
G1 X123.53 Y112.385 E0.01
G1 X123.115 Y112.356 E0.011
G1 X122.54 Y112.257 E0.014
G1 X122.352 Y112.197 E0.005
G1 X121.66 Y111.902 E0.019
G1 X121.553 Y111.868 E0.003
G1 X121.419 Y111.851 E0.003
G1 X121.199 Y111.877 E0.006
G1 X121.087 Y111.921 E0.003
G1 X120.984 Y111.982 E0.003
G1 X120.894 Y112.06 E0.002
G1 X120.813 Y112.157 E0.004
G1 X120.083 Y113.593 E0.04
G1 X120.043 Y113.827 E0.006
G1 X120.055 Y113.949 E0.003
G1 X120.092 Y114.08 E0.003
G1 X120.203 Y114.27 E0.006
G1 X120.288 Y114.357 E0.003
G1 X121.004 Y114.795 E0.021
G1 X121.174 Y114.919 E0.005
G1 X121.599 Y115.333 E0.015
G1 X121.866 Y115.65 E0.01
G1 X122.116 Y115.988 E0.011
G1 X122.35 Y116.346 E0.01
G1 X122.559 Y116.697 E0.01
G1 X122.921 Y117.412 E0.02
G1 X122.341 Y118.208 E0.025
G1 X121.602 Y118.095 E0.019
G1 X121.152 Y117.996 E0.011
G1 X120.739 Y117.883 E0.011
G1 X120.34 Y117.749 E0.01
G1 X119.774 Y117.509 E0.016
G1 X119.431 Y117.316 E0.009
G1 X119.278 Y117.207 E0.005
G1 X118.622 Y116.648 E0.022
G1 X118.515 Y116.594 E0.003
G1 X118.278 Y116.546 E0.006
G1 X118.044 Y116.58 E0.006
G1 X117.934 Y116.626 E0.003
G1 X117.833 Y116.691 E0.002
G1 X116.692 Y117.83 E0.041
G1 X116.619 Y117.95 E0.003
G1 X116.553 Y118.161 E0.006
G1 X116.546 Y118.28 E0.003
G1 X116.594 Y118.515 E0.006
G1 X116.714 Y118.712 E0.005
G1 X117.207 Y119.278 E0.019
G1 X117.317 Y119.432 E0.005
G1 X117.509 Y119.774 E0.01
G1 X117.749 Y120.34 E0.015
G1 X117.883 Y120.739 E0.011
G1 X117.996 Y121.152 E0.01
G1 X118.09 Y121.576 E0.011
G1 X118.208 Y122.341 E0.019
G1 X117.659 Y122.749 E0.017
G1 X117.412 Y122.921 E0.008
G1 X116.743 Y122.584 E0.019
G1 X116.346 Y122.35 E0.011
G1 X115.988 Y122.116 E0.011
G1 X115.65 Y121.866 E0.01
G1 X115.333 Y121.599 E0.011
G1 X115.047 Y121.319 E0.01
G1 X114.807 Y121.022 E0.009
G1 X114.356 Y120.286 E0.022
G1 X114.255 Y120.192 E0.003
G1 X114.064 Y120.085 E0.006
G1 X113.827 Y120.043 E0.006
G1 X113.593 Y120.083 E0.005
G1 X113.492 Y120.129 E0.003
G1 X113.081 Y120.353 E0.012
G1 X112.157 Y120.813 E0.026
G1 X112.06 Y120.894 E0.003
G1 X111.982 Y120.984 E0.003
G1 X111.921 Y121.087 E0.003
G1 X111.877 Y121.199 E0.003
G1 X111.853 Y121.317 E0.003
G1 X111.851 Y121.437 E0.003
G1 X111.869 Y121.555 E0.003
G1 X112.201 Y122.364 E0.022
G1 X112.254 Y122.528 E0.004
G1 X112.356 Y123.115 E0.015
G1 X112.385 Y123.53 E0.01
G1 X112.388 Y123.95 E0.011
G1 X112.368 Y124.377 E0.01
G1 X112.326 Y124.809 E0.011
G1 X112.203 Y125.574 E0.019
G1 X111.266 Y125.879 E0.025
G1 X110.717 Y125.332 E0.019
G1 X110.428 Y125.007 E0.011
G1 X110.161 Y124.673 E0.011
G1 X109.916 Y124.332 E0.01
G1 X109.71 Y124.001 E0.01
G1 X109.6 Y123.803 E0.006
G1 X109.435 Y123.446 E0.009
G1 X109.376 Y123.268 E0.005
G1 X109.173 Y122.428 E0.022
G1 X109.108 Y122.31 E0.003
G1 X108.958 Y122.147 E0.006
G1 X108.747 Y122.036 E0.006
G1 X108.63 Y122.007 E0.003
G1 X108.504 Y122 E0.003
G1 X106.914 Y122.254 E0.04
G1 X106.7 Y122.359 E0.006
G1 X106.61 Y122.439 E0.003
G1 X106.534 Y122.533 E0.003
G1 X106.437 Y122.748 E0.006
G1 X106.416 Y122.868 E0.003
G1 X106.417 Y122.979 E0.003
G1 X106.483 Y123.726 E0.018
G1 X106.482 Y123.912 E0.005
G1 X106.398 Y124.502 E0.015
G1 X106.297 Y124.905 E0.01
G1 X106.171 Y125.305 E0.011
G1 X106.02 Y125.706 E0.01
G1 X105.846 Y126.104 E0.011
G1 X105.492 Y126.793 E0.019
G1 X105.203 Y126.799 E0.008
G1 X104.507 Y126.792 E0.017
G1 X104.154 Y126.104 E0.019
G1 X103.98 Y125.706 E0.011
G1 X103.829 Y125.305 E0.011
G1 X103.703 Y124.905 E0.01
G1 X103.565 Y124.307 E0.016
G1 X103.518 Y123.912 E0.009
G1 X103.517 Y123.726 E0.005
G1 X103.583 Y122.979 E0.019
G1 X103.584 Y122.868 E0.003
G1 X103.563 Y122.748 E0.003
G1 X103.524 Y122.636 E0.003
G1 X103.465 Y122.531 E0.003
G1 X103.298 Y122.358 E0.006
G1 X103.179 Y122.29 E0.003
G1 X102.978 Y122.231 E0.005
G1 X102.513 Y122.17 E0.012
G1 X101.496 Y122 E0.026
G1 X101.37 Y122.007 E0.003
G1 X101.25 Y122.036 E0.003
G1 X101.042 Y122.148 E0.006
G1 X100.882 Y122.324 E0.006
G1 X100.826 Y122.43 E0.003
G1 X100.624 Y123.268 E0.021
G1 X100.566 Y123.444 E0.005
G1 X100.302 Y123.98 E0.015
G1 X100.084 Y124.332 E0.01
G1 X99.839 Y124.673 E0.011
G1 X99.572 Y125.007 E0.01
G1 X99.283 Y125.332 E0.011
G1 X98.734 Y125.879 E0.019
G1 X97.797 Y125.574 E0.025
G1 X97.674 Y124.809 E0.019
G1 X97.632 Y124.377 E0.011
G1 X97.612 Y123.95 E0.011
G1 X97.615 Y123.53 E0.01
G1 X97.644 Y123.115 E0.011
G1 X97.743 Y122.54 E0.014
G1 X97.803 Y122.352 E0.005
G1 X98.132 Y121.553 E0.022
G1 X98.149 Y121.419 E0.003
G1 X98.123 Y121.199 E0.006
G1 X98.079 Y121.087 E0.003
G1 X98.018 Y120.984 E0.003
G1 X97.94 Y120.894 E0.003
G1 X97.843 Y120.813 E0.003
G1 X96.407 Y120.083 E0.04
G1 X96.173 Y120.043 E0.006
G1 X96.051 Y120.055 E0.003
G1 X95.92 Y120.092 E0.003
G1 X95.73 Y120.203 E0.006
G1 X95.643 Y120.288 E0.003
G1 X95.579 Y120.378 E0.003
G1 X95.205 Y121.004 E0.018
G1 X94.953 Y121.319 E0.01
G1 X94.667 Y121.599 E0.01
G1 X94.35 Y121.866 E0.01
G1 X94.012 Y122.116 E0.011
G1 X93.303 Y122.559 E0.02
G1 X92.588 Y122.921 E0.02
G1 X92.351 Y122.756 E0.008
G1 X91.792 Y122.341 E0.017
G1 X91.905 Y121.601 E0.019
G1 X91.998 Y121.178 E0.01
G1 X92.118 Y120.739 E0.012
G1 X92.251 Y120.34 E0.01
G1 X92.491 Y119.774 E0.016
G1 X92.684 Y119.431 E0.009
G1 X92.793 Y119.278 E0.005
G1 X93.286 Y118.712 E0.019
G1 X93.406 Y118.515 E0.006
G1 X93.454 Y118.278 E0.006
G1 X93.443 Y118.143 E0.003
G1 X93.374 Y117.934 E0.006
G1 X93.235 Y117.751 E0.005
G1 X92.896 Y117.429 E0.012
G1 X92.172 Y116.694 E0.026
G1 X92.066 Y116.626 E0.003
G1 X91.955 Y116.58 E0.003
G1 X91.72 Y116.546 E0.006
G1 X91.485 Y116.594 E0.006
G1 X91.377 Y116.648 E0.003
G1 X90.722 Y117.207 E0.021
G1 X90.568 Y117.317 E0.005
G1 X90.226 Y117.509 E0.01
G1 X89.66 Y117.749 E0.015
G1 X89.261 Y117.883 E0.011
G1 X88.848 Y117.996 E0.01
G1 X88.424 Y118.09 E0.011
G1 X87.659 Y118.208 E0.019
G1 X87.079 Y117.412 E0.025
G1 X87.416 Y116.743 E0.019
G1 X87.65 Y116.346 E0.011
G1 X87.884 Y115.988 E0.011
G1 X88.134 Y115.65 E0.01
G1 X88.401 Y115.333 E0.011
G1 X88.827 Y114.919 E0.014
G1 X88.978 Y114.807 E0.005
G1 X89.712 Y114.357 E0.022
G1 X89.797 Y114.27 E0.003
G1 X89.915 Y114.064 E0.006
G1 X89.957 Y113.827 E0.006
G1 X89.917 Y113.593 E0.005
G1 X89.187 Y112.157 E0.041
G1 X89.106 Y112.06 E0.003
G1 X89.014 Y111.981 E0.003
G1 X88.897 Y111.914 E0.003
G1 X88.683 Y111.853 E0.006
G1 X88.563 Y111.851 E0.003
G1 X88.34 Y111.902 E0.005
G1 X87.648 Y112.197 E0.019
G1 X87.472 Y112.254 E0.005
G1 X86.884 Y112.356 E0.015
G1 X86.47 Y112.385 E0.01
G1 X86.05 Y112.388 E0.011
G1 X85.623 Y112.368 E0.01
G1 X85.191 Y112.326 E0.011
G1 X84.426 Y112.203 E0.019
G1 X84.121 Y111.266 E0.025
G1 X84.351 Y111.024 E0.008
G1 X84.993 Y110.428 E0.022
G1 X85.327 Y110.161 E0.011
G1 X85.668 Y109.916 E0.01
G1 X85.999 Y109.71 E0.01
G1 X86.197 Y109.6 E0.006
G1 X86.554 Y109.435 E0.009
G1 X86.732 Y109.376 E0.005
G1 X87.464 Y109.208 E0.019
G1 X87.572 Y109.173 E0.003
G1 X87.69 Y109.108 E0.003
G1 X87.853 Y108.958 E0.006
G1 X87.917 Y108.857 E0.003
G1 X87.964 Y108.747 E0.003
G1 X87.993 Y108.63 E0.003
G1 X88 Y108.504 E0.003
G1 X87.746 Y106.914 E0.04
G1 X87.641 Y106.7 E0.006
G1 X87.469 Y106.535 E0.006
G1 X87.362 Y106.475 E0.003
G1 X87.132 Y106.416 E0.006
G1 X86.274 Y106.483 E0.021
G1 X86.088 Y106.482 E0.005
G1 X85.498 Y106.398 E0.015
G1 X85.095 Y106.297 E0.01
G1 X84.695 Y106.171 E0.011
G1 X84.294 Y106.02 E0.01
G1 X83.896 Y105.846 E0.011
G1 X83.207 Y105.492 E0.019
G1 X83.208 Y104.507 E0.025
G1 X83.896 Y104.154 E0.019
G1 X84.294 Y103.98 E0.011
G1 X84.695 Y103.829 E0.011
G1 X85.095 Y103.703 E0.01
G1 X85.474 Y103.608 E0.01
G1 X85.693 Y103.565 E0.006
G1 X86.088 Y103.518 E0.009
G1 X86.274 Y103.517 E0.005
G1 X87.021 Y103.583 E0.019
G1 X87.132 Y103.584 E0.003
G1 X87.252 Y103.563 E0.003
G1 X87.364 Y103.524 E0.003
G1 X87.469 Y103.465 E0.003
G1 X87.642 Y103.298 E0.006
G1 X87.71 Y103.179 E0.003
G1 X87.769 Y102.978 E0.005
G1 X87.83 Y102.513 E0.012
G1 X88 Y101.496 E0.026
G1 X87.993 Y101.37 E0.003
G1 X87.964 Y101.25 E0.003
G1 X87.852 Y101.042 E0.006
G1 X87.676 Y100.882 E0.006
G1 X87.57 Y100.826 E0.003
G1 X86.732 Y100.624 E0.021
G1 X86.556 Y100.566 E0.005
G1 X86.02 Y100.302 E0.015
G1 X85.668 Y100.084 E0.01
G1 X85.327 Y99.839 E0.011
G1 X84.993 Y99.572 E0.01
G1 X84.668 Y99.283 E0.011
G1 X84.121 Y98.734 E0.019
G1 X84.426 Y97.797 E0.025
G1 X85.191 Y97.674 E0.019
G1 X85.623 Y97.632 E0.011
G1 X86.05 Y97.612 E0.011
G1 X86.47 Y97.615 E0.01
G1 X87.07 Y97.667 E0.015
G1 X87.46 Y97.743 E0.01
G1 X87.648 Y97.803 E0.005
G1 X88.34 Y98.098 E0.019
G1 X88.447 Y98.132 E0.003
G1 X88.581 Y98.149 E0.003
G1 X88.801 Y98.123 E0.006
G1 X88.913 Y98.079 E0.003
G1 X89.016 Y98.018 E0.003
G1 X89.106 Y97.94 E0.003
G1 X89.187 Y97.843 E0.003
G1 X89.917 Y96.407 E0.04
G1 X89.957 Y96.173 E0.006
G1 X89.945 Y96.051 E0.003
G1 X89.908 Y95.92 E0.003
G1 X89.797 Y95.73 E0.006
G1 X89.712 Y95.643 E0.003
G1 X88.996 Y95.205 E0.021
G1 X88.826 Y95.081 E0.005
G1 X88.401 Y94.667 E0.015
G1 X88.134 Y94.35 E0.01
G1 X87.884 Y94.012 E0.011
G1 X87.65 Y93.654 E0.01
G1 X87.441 Y93.303 E0.01
G1 X87.079 Y92.588 E0.02
G1 X87.659 Y91.792 E0.025
G1 X88.399 Y91.905 E0.019
G1 X88.822 Y91.998 E0.01
G1 X89.261 Y92.118 E0.012
G1 X89.66 Y92.251 E0.01
G1 X90.044 Y92.406 E0.011
G1 X90.226 Y92.491 E0.005
G1 X90.569 Y92.684 E0.009
G1 X90.722 Y92.793 E0.005
G1 X91.288 Y93.286 E0.019
G1 X91.377 Y93.352 E0.003
G1 X91.485 Y93.406 E0.003
G1 X91.722 Y93.454 E0.006
G1 X91.857 Y93.443 E0.003
G1 X92.066 Y93.374 E0.006
G1 X92.249 Y93.235 E0.005
G1 X92.571 Y92.896 E0.012
G1 X93.306 Y92.172 E0.026
G1 X93.374 Y92.066 E0.003
G1 X93.42 Y91.955 E0.003
G1 X93.454 Y91.72 E0.006
G1 X93.406 Y91.485 E0.006
G1 X93.352 Y91.377 E0.003
G1 X92.793 Y90.722 E0.021
G1 X92.683 Y90.568 E0.005
G1 X92.491 Y90.226 E0.01
G1 X92.251 Y89.66 E0.015
G1 X92.117 Y89.261 E0.011
G1 X92.004 Y88.848 E0.01
G1 X91.91 Y88.424 E0.011
G1 X91.792 Y87.659 E0.019
G1 X92.588 Y87.079 E0.025
G1 X93.257 Y87.416 E0.019
G1 X93.654 Y87.65 E0.011
G1 X94.012 Y87.884 E0.011
G1 X94.35 Y88.134 E0.01
G1 X94.667 Y88.401 E0.011
G1 X95.081 Y88.827 E0.014
G1 X95.193 Y88.978 E0.005
G1 X95.643 Y89.712 E0.022
G1 X95.73 Y89.797 E0.003
G1 X95.936 Y89.915 E0.006
G1 X96.173 Y89.957 E0.006
G1 X96.407 Y89.917 E0.005
G1 X97.843 Y89.187 E0.041
G1 X97.94 Y89.106 E0.003
G1 X98.019 Y89.014 E0.003
G1 X98.086 Y88.897 E0.003
G1 X98.147 Y88.683 E0.006
G1 X98.149 Y88.563 E0.003
G1 X98.098 Y88.34 E0.005
G1 X97.803 Y87.648 E0.019
G1 X97.746 Y87.472 E0.005
G1 X97.644 Y86.884 E0.015
G1 X97.615 Y86.47 E0.01
G1 X97.612 Y86.05 E0.011
G1 X97.632 Y85.623 E0.01
G1 X97.674 Y85.191 E0.011
;rapid-leaky
G0 X98.031 Y85.233 F7200
;bead-perimeter_inner
G1 X98.112 Y84.701 F2400 E0.014
G1 X98.638 Y84.526 E0.013
G1 X99.019 Y84.913 E0.014
G1 X99.297 Y85.225 E0.01
G1 X99.551 Y85.544 E0.01
G1 X99.784 Y85.869 E0.01
G1 X99.979 Y86.181 E0.01
G1 X100.228 Y86.682 E0.014
G1 X100.277 Y86.829 E0.003
G1 X100.445 Y87.559 E0.019
G1 X100.495 Y87.716 E0.004
G1 X100.591 Y87.888 E0.005
G1 X100.687 Y88.014 E0.004
G1 X100.82 Y88.138 E0.005
G1 X100.974 Y88.236 E0.004
G1 X101.138 Y88.307 E0.005
G1 X101.316 Y88.35 E0.004
G1 X101.515 Y88.362 E0.005
G1 X102.553 Y88.188 E0.026
G1 X103.039 Y88.124 E0.013
G1 X103.19 Y88.092 E0.004
G1 X103.354 Y88.028 E0.004
G1 X103.513 Y87.933 E0.005
G1 X103.65 Y87.811 E0.004
G1 X103.764 Y87.673 E0.005
G1 X103.856 Y87.507 E0.004
G1 X103.917 Y87.321 E0.005
G1 X103.945 Y87.16 E0.004
G1 X103.943 Y87.003 E0.004
G1 X103.877 Y86.259 E0.019
G1 X103.878 Y86.11 E0.004
G1 X103.954 Y85.576 E0.013
G1 X104.049 Y85.193 E0.01
G1 X104.169 Y84.812 E0.01
G1 X104.314 Y84.43 E0.01
G1 X104.481 Y84.047 E0.01
G1 X104.724 Y83.563 E0.014
G1 X105.278 Y83.566 E0.014
G1 X105.333 Y83.666 E0.003
G1 X105.686 Y84.43 E0.021
G1 X105.831 Y84.812 E0.01
G1 X105.951 Y85.193 E0.01
G1 X106.04 Y85.552 E0.009
G1 X106.079 Y85.75 E0.005
G1 X106.122 Y86.11 E0.009
G1 X106.123 Y86.259 E0.004
G1 X106.055 Y87.162 E0.022
G1 X106.087 Y87.343 E0.005
G1 X106.147 Y87.512 E0.004
G1 X106.236 Y87.673 E0.005
G1 X106.35 Y87.811 E0.004
G1 X106.491 Y87.937 E0.005
G1 X106.667 Y88.037 E0.005
G1 X106.812 Y88.092 E0.004
G1 X106.961 Y88.124 E0.004
G1 X107.434 Y88.186 E0.012
G1 X108.485 Y88.362 E0.026
G1 X108.684 Y88.35 E0.005
G1 X108.868 Y88.306 E0.005
G1 X109.045 Y88.225 E0.005
G1 X109.181 Y88.137 E0.004
G1 X109.314 Y88.013 E0.005
G1 X109.423 Y87.871 E0.004
G1 X109.507 Y87.71 E0.005
G1 X109.556 Y87.559 E0.003
G1 X109.723 Y86.829 E0.019
G1 X109.77 Y86.688 E0.004
G1 X109.923 Y86.357 E0.009
G1 X110.216 Y85.868 E0.014
G1 X110.449 Y85.544 E0.01
G1 X110.703 Y85.225 E0.01
G1 X110.981 Y84.913 E0.011
G1 X111.362 Y84.527 E0.013
G1 X111.888 Y84.701 E0.014
G1 X111.969 Y85.233 E0.014
G1 X112.009 Y85.649 E0.01
G1 X112.028 Y86.057 E0.01
G1 X112.025 Y86.456 E0.01
G1 X111.997 Y86.85 E0.01
G1 X111.908 Y87.371 E0.013
G1 X111.859 Y87.523 E0.004
G1 X111.565 Y88.214 E0.019
G1 X111.515 Y88.368 E0.004
G1 X111.49 Y88.563 E0.005
G1 X111.495 Y88.725 E0.004
G1 X111.531 Y88.903 E0.004
G1 X111.596 Y89.073 E0.005
G1 X111.69 Y89.228 E0.004
G1 X111.807 Y89.364 E0.005
G1 X111.959 Y89.49 E0.005
G1 X113.474 Y90.258 E0.042
G1 X113.647 Y90.301 E0.005
G1 X113.827 Y90.318 E0.004
G1 X114.017 Y90.301 E0.005
G1 X114.208 Y90.245 E0.005
G1 X114.351 Y90.178 E0.004
G1 X114.499 Y90.077 E0.004
G1 X114.631 Y89.947 E0.005
G1 X114.723 Y89.819 E0.004
G1 X115.113 Y89.169 E0.019
G1 X115.199 Y89.053 E0.003
G1 X115.438 Y88.795 E0.009
G1 X115.873 Y88.417 E0.014
G1 X116.174 Y88.194 E0.01
G1 X116.537 Y87.955 E0.011
G1 X116.895 Y87.743 E0.01
G1 X117.374 Y87.496 E0.014
G1 X117.775 Y87.781 E0.012
G1 X117.825 Y87.818 E0.001
G1 X117.809 Y87.936 E0.003
G1 X117.646 Y88.761 E0.021
G1 X117.538 Y89.156 E0.01
G1 X117.411 Y89.535 E0.01
G1 X117.273 Y89.878 E0.01
G1 X117.186 Y90.067 E0.005
G1 X117.015 Y90.371 E0.009
G1 X116.924 Y90.499 E0.003
G1 X116.433 Y91.062 E0.019
G1 X116.34 Y91.188 E0.004
G1 X116.257 Y91.353 E0.005
G1 X116.206 Y91.53 E0.004
G1 X116.185 Y91.71 E0.005
G1 X116.196 Y91.89 E0.004
G1 X116.236 Y92.066 E0.005
G1 X116.306 Y92.234 E0.004
G1 X116.404 Y92.388 E0.005
G1 X117.614 Y93.597 E0.042
G1 X117.766 Y93.694 E0.005
G1 X117.934 Y93.764 E0.005
G1 X118.109 Y93.804 E0.004
G1 X118.29 Y93.815 E0.005
G1 X118.47 Y93.794 E0.004
G1 X118.647 Y93.743 E0.005
G1 X118.812 Y93.66 E0.004
G1 X118.938 Y93.567 E0.004
G1 X119.501 Y93.076 E0.019
G1 X119.764 Y92.904 E0.008
G1 X120.1 Y92.737 E0.009
G1 X120.465 Y92.589 E0.01
G1 X120.844 Y92.462 E0.01
G1 X121.239 Y92.354 E0.01
G1 X121.646 Y92.264 E0.01
G1 X122.178 Y92.176 E0.014
G1 X122.506 Y92.622 E0.014
G1 X122.27 Y93.081 E0.013
G1 X122.044 Y93.464 E0.011
G1 X121.82 Y93.806 E0.01
G1 X121.583 Y94.127 E0.01
G1 X121.213 Y94.554 E0.014
G1 X120.947 Y94.801 E0.009
G1 X120.822 Y94.894 E0.004
G1 X120.181 Y95.277 E0.018
G1 X120.053 Y95.369 E0.004
G1 X119.923 Y95.501 E0.005
G1 X119.821 Y95.651 E0.005
G1 X119.745 Y95.813 E0.004
G1 X119.699 Y95.989 E0.005
G1 X119.682 Y96.173 E0.004
G1 X119.699 Y96.353 E0.005
G1 X119.742 Y96.526 E0.004
G1 X119.806 Y96.668 E0.004
G1 X120.033 Y97.086 E0.012
G1 X120.51 Y98.041 E0.026
G1 X120.636 Y98.193 E0.005
G1 X120.777 Y98.314 E0.005
G1 X120.949 Y98.413 E0.005
G1 X121.099 Y98.47 E0.004
G1 X121.276 Y98.506 E0.005
G1 X121.46 Y98.51 E0.004
G1 X121.638 Y98.483 E0.005
G1 X121.786 Y98.435 E0.003
G1 X122.478 Y98.14 E0.019
G1 X122.619 Y98.095 E0.004
G1 X122.965 Y98.026 E0.009
G1 X123.544 Y97.975 E0.014
G1 X123.943 Y97.972 E0.01
G1 X124.351 Y97.991 E0.01
G1 X124.767 Y98.031 E0.011
G1 X125.299 Y98.112 E0.013
G1 X125.474 Y98.638 E0.014
G1 X125.087 Y99.019 E0.014
G1 X124.775 Y99.297 E0.01
G1 X124.456 Y99.551 E0.01
G1 X124.131 Y99.784 E0.01
G1 X123.819 Y99.979 E0.009
G1 X123.318 Y100.228 E0.014
G1 X123.171 Y100.277 E0.004
G1 X122.426 Y100.448 E0.019
G1 X122.268 Y100.504 E0.004
G1 X122.128 Y100.578 E0.004
G1 X121.987 Y100.686 E0.005
G1 X121.862 Y100.82 E0.004
G1 X121.764 Y100.974 E0.005
G1 X121.693 Y101.138 E0.004
G1 X121.65 Y101.316 E0.005
G1 X121.638 Y101.515 E0.005
G1 X121.816 Y102.58 E0.027
G1 X121.876 Y103.039 E0.011
G1 X121.908 Y103.19 E0.004
G1 X121.972 Y103.354 E0.005
G1 X122.067 Y103.513 E0.004
G1 X122.189 Y103.65 E0.005
G1 X122.327 Y103.764 E0.004
G1 X122.488 Y103.853 E0.005
G1 X122.657 Y103.913 E0.004
G1 X122.838 Y103.945 E0.005
G1 X122.997 Y103.943 E0.004
G1 X123.741 Y103.877 E0.019
G1 X123.89 Y103.878 E0.003
G1 X124.425 Y103.954 E0.014
G1 X124.807 Y104.049 E0.01
G1 X125.188 Y104.169 E0.01
G1 X125.57 Y104.314 E0.01
G1 X125.953 Y104.481 E0.01
G1 X126.438 Y104.724 E0.014
G1 X126.434 Y105.278 E0.013
G1 X125.953 Y105.52 E0.014
G1 X125.57 Y105.686 E0.01
G1 X125.188 Y105.831 E0.011
G1 X124.807 Y105.951 E0.009
G1 X124.251 Y106.079 E0.015
G1 X123.89 Y106.122 E0.009
G1 X123.741 Y106.123 E0.003
G1 X122.997 Y106.057 E0.019
G1 X122.838 Y106.055 E0.004
G1 X122.657 Y106.087 E0.005
G1 X122.488 Y106.147 E0.004
G1 X122.327 Y106.236 E0.005
G1 X122.189 Y106.35 E0.004
G1 X122.063 Y106.491 E0.005
G1 X121.963 Y106.667 E0.005
G1 X121.908 Y106.812 E0.004
G1 X121.638 Y108.485 E0.042
G1 X121.65 Y108.684 E0.005
G1 X121.694 Y108.868 E0.005
G1 X121.775 Y109.045 E0.005
G1 X121.863 Y109.181 E0.004
G1 X121.987 Y109.314 E0.004
G1 X122.129 Y109.423 E0.005
G1 X122.29 Y109.507 E0.004
G1 X122.441 Y109.556 E0.004
G1 X123.171 Y109.723 E0.019
G1 X123.312 Y109.77 E0.004
G1 X123.798 Y110.008 E0.013
G1 X124.132 Y110.216 E0.01
G1 X124.456 Y110.449 E0.01
G1 X124.775 Y110.703 E0.01
G1 X125.087 Y110.981 E0.01
G1 X125.473 Y111.362 E0.014
G1 X125.299 Y111.888 E0.014
G1 X124.767 Y111.969 E0.013
G1 X124.351 Y112.009 E0.011
G1 X123.943 Y112.028 E0.01
G1 X123.544 Y112.025 E0.01
G1 X122.987 Y111.978 E0.014
G1 X122.629 Y111.908 E0.009
G1 X122.477 Y111.859 E0.004
G1 X121.786 Y111.565 E0.019
G1 X121.632 Y111.515 E0.004
G1 X121.437 Y111.49 E0.004
G1 X121.275 Y111.495 E0.005
G1 X121.097 Y111.531 E0.004
G1 X120.927 Y111.596 E0.005
G1 X120.772 Y111.69 E0.004
G1 X120.636 Y111.807 E0.005
G1 X120.51 Y111.959 E0.005
G1 X120.033 Y112.914 E0.026
G1 X119.806 Y113.332 E0.012
G1 X119.742 Y113.474 E0.004
G1 X119.699 Y113.647 E0.004
G1 X119.682 Y113.827 E0.005
G1 X119.699 Y114.017 E0.005
G1 X119.755 Y114.208 E0.005
G1 X119.822 Y114.351 E0.004
G1 X119.923 Y114.499 E0.004
G1 X120.053 Y114.631 E0.005
G1 X120.181 Y114.723 E0.004
G1 X120.805 Y115.096 E0.018
G1 X120.948 Y115.2 E0.004
G1 X121.33 Y115.572 E0.013
G1 X121.583 Y115.873 E0.01
G1 X121.82 Y116.194 E0.01
G1 X122.244 Y116.873 E0.02
G1 X122.455 Y117.271 E0.011
G1 X122.506 Y117.378 E0.003
G1 X122.178 Y117.824 E0.014
G1 X121.671 Y117.741 E0.013
G1 X121.238 Y117.646 E0.011
G1 X120.844 Y117.538 E0.01
G1 X120.465 Y117.411 E0.01
G1 X120.122 Y117.273 E0.009
G1 X119.933 Y117.186 E0.006
G1 X119.629 Y117.015 E0.008
G1 X119.501 Y116.924 E0.004
G1 X118.931 Y116.427 E0.019
G1 X118.81 Y116.339 E0.004
G1 X118.647 Y116.257 E0.004
G1 X118.47 Y116.206 E0.005
G1 X118.284 Y116.184 E0.005
G1 X118.087 Y116.2 E0.005
G1 X117.933 Y116.236 E0.004
G1 X117.766 Y116.306 E0.004
G1 X117.614 Y116.403 E0.005
G1 X116.407 Y117.605 E0.042
G1 X116.297 Y117.787 E0.005
G1 X116.236 Y117.935 E0.004
G1 X116.196 Y118.11 E0.005
G1 X116.185 Y118.29 E0.004
G1 X116.206 Y118.47 E0.005
G1 X116.257 Y118.647 E0.004
G1 X116.34 Y118.812 E0.005
G1 X116.433 Y118.938 E0.004
G1 X116.924 Y119.501 E0.019
G1 X117.096 Y119.764 E0.007
G1 X117.263 Y120.1 E0.01
G1 X117.411 Y120.465 E0.01
G1 X117.538 Y120.844 E0.01
G1 X117.646 Y121.239 E0.01
G1 X117.736 Y121.646 E0.01
G1 X117.824 Y122.178 E0.014
G1 X117.378 Y122.506 E0.013
G1 X116.919 Y122.27 E0.013
G1 X116.536 Y122.044 E0.011
G1 X116.194 Y121.82 E0.011
G1 X115.873 Y121.583 E0.01
G1 X115.447 Y121.213 E0.014
G1 X115.199 Y120.947 E0.009
G1 X115.106 Y120.822 E0.004
G1 X114.737 Y120.203 E0.018
G1 X114.629 Y120.049 E0.004
G1 X114.479 Y119.909 E0.005
G1 X114.349 Y119.821 E0.004
G1 X114.187 Y119.745 E0.005
G1 X114.011 Y119.699 E0.004
G1 X113.827 Y119.682 E0.005
G1 X113.647 Y119.699 E0.004
G1 X113.474 Y119.742 E0.005
G1 X113.332 Y119.806 E0.004
G1 X112.914 Y120.033 E0.012
G1 X111.959 Y120.51 E0.026
G1 X111.807 Y120.636 E0.005
G1 X111.69 Y120.772 E0.005
G1 X111.596 Y120.927 E0.004
G1 X111.531 Y121.097 E0.005
G1 X111.494 Y121.276 E0.004
G1 X111.49 Y121.46 E0.005
G1 X111.517 Y121.636 E0.004
G1 X111.562 Y121.779 E0.004
G1 X111.864 Y122.489 E0.019
G1 X111.905 Y122.618 E0.004
G1 X111.976 Y122.976 E0.009
G1 X112.025 Y123.544 E0.014
G1 X112.028 Y123.943 E0.01
G1 X112.009 Y124.351 E0.01
G1 X111.969 Y124.767 E0.011
G1 X111.888 Y125.299 E0.013
G1 X111.362 Y125.474 E0.014
G1 X110.981 Y125.087 E0.013
G1 X110.703 Y124.775 E0.011
G1 X110.449 Y124.456 E0.01
G1 X110.216 Y124.131 E0.01
G1 X110.021 Y123.819 E0.009
G1 X109.772 Y123.318 E0.014
G1 X109.723 Y123.171 E0.004
G1 X109.556 Y122.441 E0.019
G1 X109.505 Y122.284 E0.004
G1 X109.409 Y122.112 E0.005
G1 X109.313 Y121.986 E0.004
G1 X109.18 Y121.862 E0.004
G1 X109.026 Y121.764 E0.005
G1 X108.862 Y121.693 E0.004
G1 X108.684 Y121.65 E0.005
G1 X108.485 Y121.638 E0.005
G1 X107.447 Y121.812 E0.026
G1 X106.961 Y121.876 E0.012
G1 X106.81 Y121.908 E0.004
G1 X106.646 Y121.972 E0.004
G1 X106.487 Y122.067 E0.005
G1 X106.35 Y122.189 E0.005
G1 X106.232 Y122.333 E0.004
G1 X106.139 Y122.509 E0.005
G1 X106.087 Y122.657 E0.004
G1 X106.055 Y122.838 E0.005
G1 X106.057 Y122.997 E0.004
G1 X106.123 Y123.741 E0.018
G1 X106.122 Y123.89 E0.004
G1 X106.046 Y124.424 E0.013
G1 X105.951 Y124.807 E0.01
G1 X105.831 Y125.188 E0.01
G1 X105.686 Y125.57 E0.01
G1 X105.519 Y125.953 E0.011
G1 X105.276 Y126.438 E0.013
G1 X104.722 Y126.434 E0.014
G1 X104.48 Y125.953 E0.014
G1 X104.314 Y125.57 E0.01
G1 X104.169 Y125.188 E0.01
G1 X104.049 Y124.807 E0.01
G1 X103.921 Y124.251 E0.014
G1 X103.878 Y123.89 E0.01
G1 X103.877 Y123.741 E0.003
G1 X103.943 Y122.997 E0.019
G1 X103.945 Y122.838 E0.004
G1 X103.913 Y122.657 E0.004
G1 X103.853 Y122.488 E0.005
G1 X103.764 Y122.327 E0.004
G1 X103.65 Y122.189 E0.005
G1 X103.509 Y122.063 E0.005
G1 X103.333 Y121.963 E0.005
G1 X103.188 Y121.908 E0.004
G1 X101.515 Y121.638 E0.042
G1 X101.316 Y121.65 E0.005
G1 X101.132 Y121.694 E0.005
G1 X100.955 Y121.775 E0.004
G1 X100.819 Y121.863 E0.004
G1 X100.686 Y121.987 E0.005
G1 X100.577 Y122.129 E0.004
G1 X100.493 Y122.29 E0.005
G1 X100.445 Y122.441 E0.004
G1 X100.277 Y123.171 E0.019
G1 X100.23 Y123.312 E0.003
G1 X99.992 Y123.798 E0.014
G1 X99.784 Y124.132 E0.01
G1 X99.551 Y124.456 E0.01
G1 X99.297 Y124.775 E0.01
G1 X99.019 Y125.087 E0.01
G1 X98.638 Y125.473 E0.014
G1 X98.112 Y125.299 E0.014
G1 X98.031 Y124.767 E0.013
G1 X97.991 Y124.351 E0.01
G1 X97.972 Y123.943 E0.011
G1 X97.975 Y123.544 E0.01
G1 X98.022 Y122.987 E0.013
G1 X98.092 Y122.629 E0.01
G1 X98.141 Y122.477 E0.004
G1 X98.435 Y121.786 E0.018
G1 X98.485 Y121.632 E0.004
G1 X98.51 Y121.437 E0.005
G1 X98.505 Y121.275 E0.004
G1 X98.469 Y121.097 E0.005
G1 X98.404 Y120.927 E0.004
G1 X98.31 Y120.772 E0.005
G1 X98.193 Y120.636 E0.004
G1 X98.041 Y120.51 E0.005
G1 X97.086 Y120.033 E0.027
G1 X96.668 Y119.806 E0.012
G1 X96.526 Y119.742 E0.004
G1 X96.353 Y119.699 E0.004
G1 X96.173 Y119.682 E0.005
G1 X95.983 Y119.699 E0.004
G1 X95.792 Y119.755 E0.005
G1 X95.649 Y119.823 E0.004
G1 X95.501 Y119.923 E0.005
G1 X95.369 Y120.053 E0.004
G1 X95.277 Y120.181 E0.004
G1 X94.904 Y120.805 E0.018
G1 X94.8 Y120.948 E0.005
G1 X94.428 Y121.33 E0.013
G1 X94.127 Y121.583 E0.01
G1 X93.806 Y121.82 E0.01
G1 X93.127 Y122.244 E0.02
G1 X92.729 Y122.455 E0.011
G1 X92.622 Y122.506 E0.003
G1 X92.176 Y122.178 E0.014
G1 X92.259 Y121.671 E0.013
G1 X92.348 Y121.264 E0.01
G1 X92.462 Y120.843 E0.011
G1 X92.589 Y120.465 E0.01
G1 X92.737 Y120.1 E0.01
G1 X92.985 Y119.629 E0.013
G1 X93.076 Y119.501 E0.004
G1 X93.567 Y118.938 E0.019
G1 X93.66 Y118.812 E0.003
G1 X93.743 Y118.647 E0.005
G1 X93.794 Y118.47 E0.005
G1 X93.816 Y118.284 E0.004
G1 X93.8 Y118.087 E0.005
G1 X93.764 Y117.933 E0.004
G1 X93.694 Y117.766 E0.005
G1 X93.597 Y117.614 E0.004
G1 X92.4 Y116.412 E0.043
G1 X92.234 Y116.306 E0.004
G1 X92.066 Y116.236 E0.005
G1 X91.89 Y116.196 E0.004
G1 X91.71 Y116.185 E0.005
G1 X91.53 Y116.206 E0.005
G1 X91.353 Y116.257 E0.004
G1 X91.188 Y116.34 E0.005
G1 X91.062 Y116.433 E0.004
G1 X90.499 Y116.924 E0.018
G1 X90.236 Y117.096 E0.008
G1 X89.9 Y117.263 E0.009
G1 X89.535 Y117.411 E0.01
G1 X89.156 Y117.538 E0.01
G1 X88.761 Y117.646 E0.01
G1 X88.354 Y117.736 E0.011
G1 X87.822 Y117.824 E0.013
G1 X87.494 Y117.378 E0.014
G1 X87.73 Y116.919 E0.013
G1 X87.956 Y116.536 E0.011
G1 X88.18 Y116.194 E0.01
G1 X88.417 Y115.873 E0.01
G1 X88.787 Y115.447 E0.014
G1 X89.053 Y115.199 E0.009
G1 X89.178 Y115.106 E0.004
G1 X89.819 Y114.723 E0.019
G1 X89.947 Y114.631 E0.004
